!!!!SEGMENT: pl-cz--iii-680--003_volckmer-augustin--missa-in-c-credo.krn
!!!cenid: 17xx:1166
!!!COM: Volckmer, Augustin
!!!COM-rismid: pe30020656
!!!CDT: 1755-~1820
!!!CNT:
!!!OPR: Missa in C
!!!OTL: Credo
!!!OMV: 003
!!!PDT:
!!!AGN: Sacred; Mass
!!!SMS-siglum: PL-CZ
!!!SMS-shelfmark: III-680
!!!SMS-shelfwork: 001-003 M
!!!SMS-variant:
!!!SMS-altvar:
!!!NIFC-rismid: 300001393
!!!URL-scan: https://repozytoriumplikow.nifc.pl/skany/pl-cz-nut--iii-680
!!!ONB-nifc: UWAGA: części Mszy: Kyrie, Gloria, Credo, Et incarnatus, Et resurrexit, Sanctus, Benedictus, Agnus Dei, Dona nobis
!!!AIN: 1 clrno 1 oboe 1 organ 1 soprn 1 tenor 1 viola 1 violn
!!!key: C
!!LO:TX:t=P:problem:w całej partyturze oznaczenia dynamiki czerwonym atramentem
!!LO:TX:t=P:problem:f=forto:global
!!LO:TX:t=P:problem:4,8,16: left, middle or right:global (w vl1 i 2)
**kern	**fba	**dynam	**kern	**dynam	**kern	**dynam	**kern	**dynam	**kern	**text	**dynam	**kern	**text	**dynam	**kern	**text	**dynam	**kern	**text	**dynam	**kern	**dynam	**kern	**kern	**dynam	**kern	**dynam	**kern	**dynam	**kern	**dynam	**kern	**dynam
*part15	*	*part15	*part14	*part14	*part13	*part13	*part12	*part12	*part11	*part11	*part11	*part10	*part10	*part10	*part9	*part9	*part9	*part8	*part8	*part8	*part7	*part7	*part6	*part5	*part5	*part4	*part4	*part3	*part3	*part2	*part2	*part1	*part1
*staff15	*	*	*staff14	*	*staff13	*	*staff12	*	*staff11	*staff11	*	*staff10	*staff10	*	*staff9	*staff9	*	*staff8	*staff8	*	*staff7	*	*staff6	*staff5	*	*staff4	*	*staff3	*	*staff2	*	*staff1	*
*I"Organo. ȇ Fagotti.	*	*	*I"Viola. prtex pressivo.	*	*I"Violino Secundo.	*	*I"Violino Primo.	*	*I"Baſso.	*	*	*I"Tenore.	*	*	*I"Alto.	*	*	*I"Canto	*	*	*I"Timpano.	*	*I"[Clarino Secundo]	*I"Clarino. Primo	*	*I"Corno Secundo	*	*I"Corno Primo	*	*I"Hoboi. Secundo	*	*I"Hoboi Primo.	*
*I'org e fg	*	*	*I'vla	*	*I'vl2	*	*I'vl1	*	*I'B	*	*	*I'T	*	*	*I'A	*	*	*I'S	*	*	*I'timp	*	*I'[clar 2]	*I'clar 1	*	*I'cor 2	*	*I'cor 1	*	*I'ob2	*	*I'ob1	*
*Iorgan	*	*	*Iviola	*Ivioln	*Ivioln	*Ibass	*Itenor	*Ialt	*Isoprn	*	*Itimpa	*Iclrno	*Iclrno	*Iclrno	*	*Iclrno	*	*Ioboe	*Ioboe	*	*	*	*	*	*	*	*	*	*	*	*	*	*
*ICklav	*	*	*ICstr	*ICstr	*	*ICstr	*ICvox	*ICvox	*ICvox	*	*ICvox	*	*ICidio	*	*ICbras	*ICbras	*	*ICbras	*	*ICbras	*	*ICww	*ICww	*	*	*	*	*	*	*	*	*	*
*clefF4	*	*	*clefC3	*	*clefG2	*	*clefG2	*	*clefF4	*	*	*clefC4	*	*	*clefC3	*	*	*clefC1	*	*	*clefF4	*	*clefG2	*clefG2	*	*clefG2	*	*clefG2	*	*clefG2	*	*clefG2	*
*	*	*	*	*	*	*	*	*	*	*	*	*	*	*	*	*	*	*	*	*	*	*	*	*	*	*Trd0c0	*	*Trd0c0	*	*	*	*	*
*k[]	*	*	*k[]	*	*k[]	*	*k[]	*	*k[]	*	*	*k[]	*	*	*k[]	*	*	*k[]	*	*	*k[]	*	*k[]	*k[]	*	*k[]	*	*k[]	*	*k[]	*	*k[]	*
*C:	*	*	*C:	*	*C:	*	*C:	*	*C:	*	*	*C:	*	*	*C:	*	*	*C:	*	*	*C:	*	*C:	*C:	*	*C:	*	*C:	*	*C:	*	*C:	*
*M3/4	*	*	*M3/4	*	*M3/4	*	*M3/4	*	*M3/4	*	*	*M3/4	*	*	*M3/4	*	*	*M3/4	*	*	*M3/4	*	*M3/4	*M3/4	*	*M3/4	*	*M3/4	*	*M3/4	*	*M3/4	*
*2/right	*	*	*2/right	*	*2/right	*	*2/right	*	*2/right	*	*	*2/right	*	*	*2/right	*	*	*2/right	*	*	*2/right	*	*2/right	*2/right	*	*2/right	*	*2/right	*	*2/right	*	*2/right	*
=1	=1	=1	=1	=1	=1	=1	=1	=1	=1	=1	=1	=1	=1	=1	=1	=1	=1	=1	=1	=1	=1	=1	=1	=1	=1	=1	=1	=1	=1	=1	=1	=1	=1
!	!	!	!	!	!	!	!	!	!	!	!	!	!	!	!	!	!	!	!	!	!	!	!	!	!	!	!	!	!	!	!	!LO:TX:a:i:t=Moderato	!
!	!	!	!	!	!	!	!	!	!	!	!	!	!	!	!	!	!	!	!	!	!	!	!	!	!	!	!	!	!	!	!	!LO:TX:a:t=Credo	!
!	!	!	!	!	!	!	!	!	!	!	!	!	!	!	!	!	!	!	!	!	!LO:TX:a:i:t=Moderato	!	!	!	!	!LO:TX:a:i:t=Moderato	!	!	!	!	!	!	!
!LO:TX:a:i:t=Moderato	!	!	!LO:TX:a:i:t=Moderato	!LO:TX:a:i:t=Moderat	!LO:TX:a:i:t=Moderato.	!LO:TX:b:t=Credo	!LO:TX:a:i:t=Moderato	!	!	!	!	!	!	!	!	!	!	!	!	!	!LO:TX::t=Credo	!	!	!LO:TX:a:i:t=Moderato	!	!	!	!LO:TX:a:i:t=Moderato	!	!LO:TX:a:i:t=Moderato	!	!	!
!LO:TX:a:t=Credo	!	!	!LO:TX:a:t=Credo	!LO:TX:a:t=Credo.	!LO:TX:a:t=Credo.	!	!LO:TX:t=Credo	!	!LO:TX:a:i:t=Moderato	!	!LO:DY:a	!LO:TX:a:i:t=Moderato.	!	!LO:DY:a	!LO:TX:a:i:t=Moderato	!	!	!LO:TX:a:i:t=Moderato	!	!	!	!	!LO:TX:t=P:problem:brak głosu w źródle	!LO:TX:a:t=Credo	!	!LO:TX:a:t=Credo	!	!LO:TX:a:t=Credo	!	!LO:TX:a:t=Credo	!	!	!
4C/	3	f	|4G\ 4g	f	4G/ 4e	f	4G/ 4e 4cc	f	4C/	Cre-	f	4G|/	Cre-	f	4e\	Cre-	f	4cc|\	Cre-	f	4C|/	f	2.ryy	4ee\	f	4e|/	f	4cc|\	f	4g|/	.	|4cc\	f
4D/	6	.	|4G\ 4g	.	4G/ 4d	.	4G/ 4d 4b	.	4D/	-do	.	4G|/	-do	.	4f\	-do	.	4b|\	-do	.	4GG|/	.	.	4dd\	.	4g|/	.	4dd|\	.	4g|/	.	|4b\	.
!	!	!	!	!	!	!	!	!	!	!	!	!	!	!	!	!	!	!	!	!	!	!	!	!	!	!	!LO:TX::i:t=Moderato	!	!	!	!	!	!
4r	.	.	4r	.	4r	.	4r	.	4r	.	.	4r	.	.	4r	.	.	4r	.	.	4r	.	.	4r	.	4r	.	4r	.	4r	.	4r	.
=2	=2	=2	=2	=2	=2	=2	=2	=2	=2	=2	=2	=2	=2	=2	=2	=2	=2	=2	=2	=2	=2	=2	=2	=2	=2	=2	=2	=2	=2	=2	=2	=2	=2
4BB/	3	.	|4G\ 4g	.	4dd|\	.	4ff|\	.	4BB/	/Cre-	.	4G/	/Cre-	.	4d\	/Cre-	.	4ff|\	/Cre-	.	4GG|/	.	2.ryy	4ff\	.	4g|/	.	4dd|\	.	4dd|\	.	4ff\	.
4C/	3	.	|4G\ 4g	.	4cc|\	.	4ee|\	.	4C/	-do/	.	4G/	-do/	.	4e\	-do/	.	4ee|\	-do/	.	4C|/	.	.	4eeni\	.	4cc|\	.	4ee|\	.	4cc|\	.	4ee\	.
4r	.	.	4r	.	4r	.	4r	.	4r	.	.	4r	.	.	4r	.	.	4r	.	.	4r	.	.	4r	.	4r	.	4r	.	4r	.	4r	.
*clefC1	*	*	*	*	*	*	*	*	*	*	*	*	*	*	*	*	*	*	*	*	*	*	*	*	*	*	*	*	*	*	*	*	*
=3	=3	=3	=3	=3	=3	=3	=3	=3	=3	=3	=3	=3	=3	=3	=3	=3	=3	=3	=3	=3	=3	=3	=3	=3	=3	=3	=3	=3	=3	=3	=3	=3	=3
!	!	!	!LO:TX:a:t=2	!	!LO:TX:a:t=1	!	!	!	!LO:TX:a:t=1	!	!	!	!	!	!LO:TX:a:t=1	!	!	!	!	!	!LO:TX:a:t=2	!	!	!LO:TX:a:t=2	!	!LO:TX:a:t=1	!	!	!	!LO:TX:a:t=2	!	!LO:TX:a:t=2	!
4gg|\	.	.	2.r	.	2.r	.	4gg|\	.	2.r	.	.	4g|\	in	.	2.r	.	.	4gg|\	in	.	2.r	.	2.ryy	2.r	.	2.r	.	4gg|\	.	2.r	.	2.r	.
4ee|\	.	.	.	.	.	.	4ee|\	.	.	.	.	4e|\	u-	.	.	.	.	4ee|\	u-	.	.	.	.	.	.	.	.	4ee|\	.	.	.	.	.
|4cc\	.	.	.	.	.	.	4cc|\	.	.	.	.	4c|\	-num	.	.	.	.	4cc|\	-num	.	.	.	.	.	.	.	.	4cc|\	.	.	.	.	.
*clefF4	*	*	*	*	*	*	*	*	*	*	*	*	*	*	*	*	*	*	*	*	*	*	*	*	*	*	*	*	*	*	*	*	*
=4	=4	=4	=4	=4	=4	=4	=4	=4	=4	=4	=4	=4	=4	=4	=4	=4	=4	=4	=4	=4	=4	=4	=4	=4	=4	=4	=4	=4	=4	=4	=4	=4	=4
!	!	!	!	!	!	!	!LO:TX:a:t=1	!	!	!	!	!LO:TX:a:t=1	!	!	!	!	!	!LO:TX:a:t=1	!	!	!	!	!	!	!	!	!LO:DY:a	!LO:TX:a:t=1	!	!	!	!	!
4G|\	.	.	2.r	.	4g|/	.	2.r	.	4G\	in	.	2.r	.	.	4g|\	in	.	2.r	.	.	2.r	.	2.ryy	2.r	.	4g|/	p	2.r	.	2.r	.	2.r	.
|4E|\	.	.	.	.	4e|/	.	.	.	4E\	u-	.	.	.	.	4e|\	u-	.	.	.	.	.	.	.	.	.	4e|/	.	.	.	.	.	.	.
4C|\	.	.	.	.	4c|/	.	.	.	4C\	-num	.	.	.	.	4c|\	-num	.	.	.	.	.	.	.	.	.	4c|/	.	.	.	.	.	.	.
=5	=5	=5	=5	=5	=5	=5	=5	=5	=5	=5	=5	=5	=5	=5	=5	=5	=5	=5	=5	=5	=5	=5	=5	=5	=5	=5	=5	=5	=5	=5	=5	=5	=5
!	!	!	!	!	!	!	!	!	!LO:TX:t=P:problem:2\right:global	!	!	!LO:TX:t=P:problem:2\right:global	!	!LO:DY:a	!	!	!	!	!	!	!	!	!	!	!	!	!	!	!	!	!	!	!
*	*	*	*	*	*	*	*	*	*2\right	*	*	*2\right	*	*	*	*	*	*	*	*	*	*	*	*	*	*	*	*	*	*	*	*	*
4r	.	p	2C/ 2c	p	4.g/	p	4.ee\	p	2G\	De-	p	2c\	De-	p	4.g\	in	p	(4.ee\	u-	p	4r	.	2.ryy	4r	.	4r	.	4r	.	4.ee\	p	4.gg\	p
4r	.	.	.	.	.	.	.	.	.	.	.	.	.	.	.	.	.	.	.	.	4r	.	.	4r	.	4r	.	4r	.	.	.	.	.
.	.	.	.	.	8a/	.	8ff'\	.	.	.	.	.	.	.	8a\	u-	.	8ff\)	.	.	.	.	.	.	.	.	.	.	.	8ff|\	.	|8aa\L	.
4GG/	7 5	.	4B/	.	(8g/L	.	(8ee\L	.	4GG/	.	.	4B\	.	.	8g\L	-num	.	8ee\L	-num	.	4GG/	pp	.	4dd\	p	4g/	pp	4dd\	pp	(8ee\L	.	(8gg\	.
.	.	.	.	.	8f/J)	.	8dd\J)	.	.	.	.	.	.	.	8f\J	.	.	8dd\J	.	.	.	.	.	.	.	.	.	.	.	8dd\J)	.	8ff\J)	.
=6	=6	=6	=6	=6	=6	=6	=6	=6	=6	=6	=6	=6	=6	=6	=6	=6	=6	=6	=6	=6	=6	=6	=6	=6	=6	=6	=6	=6	=6	=6	=6	=6	=6
!	!	!	!	!	!	!	!LO:TX:t=P:problem:2\right:global	!	!	!	!	!	!	!	!LO:TX:t=P:problem:2\right:global	!	!	!LO:TX:t=P:problem:2\right:global	!	!	!	!	!	!LO:TX:t=P:problem:2\right:global	!	!	!	!LO:TX:t=P:problem:2\right:global	!	!LO:TX:t=P:problem:2\right:global	!	!LO:TX:t=P:problem:2\right:global	!
*2/right	*	*	*	*	*	*	*2\right	*	*2/right	*	*	*2/right	*	*	*2\right	*	*	*2\right	*	*	*	*2\right	*	*2\right	*	*	*	*2\right	*	*2\right	*	*2\right	*
2GG/	.	.	(2B/	.	(2f/	.	(2dd\	.	2C/	-um	.	(2B\	-um	.	2f\	De-	.	(2dd\	De-	.	(2GG/	.	2.ryy	(2dd\	.	(2g/	.	(2dd\	.	(2dd\	.	(2ff\	.
!	!	!	!	!	!	!LO:DY:a	!	!	!	!	!	!	!	!	!	!	!	!	!	!	!	!	!	!	!	!	!	!	!	!	!	!	!
8C/	.	.	|8c/)	.	8e/)	mf	8cc|\)	.	4r	.	.	8c\)	.	.	8e\	-um	.	8cc|\)	-um	.	8C/)	.	.	8cc\)L	.	8e|/)	.	8cc\|)	.	8cc|\)	.	8ee|\)	.
8r	.	.	8r	.	8r	.	8r	.	.	.	.	8r	.	.	8r	.	.	8r	.	.	8r	.	.	8rr	.	8r	.	8r	.	8r	.	8r	.
=7	=7	=7	=7	=7	=7	=7	=7	=7	=7	=7	=7	=7	=7	=7	=7	=7	=7	=7	=7	=7	=7	=7	=7	=7	=7	=7	=7	=7	=7	=7	=7	=7	=7
*	*	*	*	*	*^	*	*	*	*	*	*	*	*	*	*	*	*	*	*	*	*	*	*	*	*	*	*	*	*	*	*	*	*
!LO:TX:a:t=3	!	!	!	!	!	!	!	!LO:TX:a:t=1	!	!LO:TX:a:t=3	!	!	!	!	!LO:DY:a	!	!	!	!	!	!LO:DY:a	!LO:TX:a:t=12	!	!	!LO:TX:a:t=12	!	!LO:TX:a:t=9	!	!LO:TX:a:t=9	!	!LO:TX:a:t=3	!	!LO:TX:a:t=2	!
2.r	.	.	|4f\	mf	4a|/	4d\	.	2.r	.	2.r	.	.	4d\	Pa-	f	4f\	Pa-	f	4a\	Pa-	f	2.r	.	2.ryy	2.r	.	2.r	.	2.r	.	2.r	.	2.r	.
.	.	.	|8f\L	.	8a|/L	8d\L	.	.	.	.	.	.	8d\	-trem	.	8f\	-trem	.	8a\	-trem	.	.	.	.	.	.	.	.	.	.	.	.	.	.
.	.	.	|8f\	.	8a|/	8d\	.	.	.	.	.	.	8d\	om-	.	8f\	om-	.	8a\	om-	.	.	.	.	.	.	.	.	.	.	.	.	.	.
!	!	!	!	!	!	!	!	!	!	!	!	!	!	!	!	!	!	!	!LO:LB:g=original	!	!	!	!	!	!	!	!	!	!	!	!	!	!	!
.	.	.	|8f\	.	8a|/	8d\	.	.	.	.	.	.	8d\	-ni-	.	8f\	-ni-	.	8a\	-ni-	.	.	.	.	.	.	.	.	.	.	.	.	.	.
!	!	!	!	!	!	!	!	!	!	!	!	!	!	!	!	!LO:LB:g=original	!	!	!	!	!	!	!	!	!	!	!	!	!	!	!	!	!	!
.	.	.	|8f\J	.	8a|/J	8d\J	.	.	.	.	.	.	8d\	-po-	.	8f\	-po-	.	8a\	-po-	.	.	.	.	.	.	.	.	.	.	.	.	.	.
=8	=8	=8	=8	=8	=8	=8	=8	=8	=8	=8	=8	=8	=8	=8	=8	=8	=8	=8	=8	=8	=8	=8	=8	=8	=8	=8	=8	=8	=8	=8	=8	=8	=8	=8
2.r	.	.	|8f\L	.	8a|/L	8d\L	.	4r	.	2.r	.	.	4d\	-ten-	.	4f\	-ten-	.	4a\	-ten-	.	2.r	.	2.ryy	2.r	.	2.r	.	2.r	.	2.r	.	2.r	.
.	.	.	|8f\	.	8a|/	8d\	.	.	.	.	.	.	.	.	.	.	.	.	.	.	.	.	.	.	.	.	.	.	.	.	.	.	.	.
!	!	!	!	!	!	!	!	!	!	!	!	!	!LO:LB:g=original	!	!	!	!	!	!	!	!	!	!	!	!	!	!	!	!	!	!	!	!	!
.	.	.	|8f\	.	8a|/	8d\	.	4r	.	.	.	.	8d\	-tem	.	8f\	-tem	.	8a\	-tem	.	.	.	.	.	.	.	.	.	.	.	.	.	.
.	.	.	|8f\	.	8a|/	8d\	.	.	.	.	.	.	8d\	fa-	.	8f\	fa-	.	8a\	fa-	.	.	.	.	.	.	.	.	.	.	.	.	.	.
.	.	.	|8f\	.	8a|/	8d\	.	(16dd\LL	mf	.	.	.	8d\	-cto-	.	8f\	-cto-	.	8a\	-cto-	.	.	.	.	.	.	.	.	.	.	.	.	.	.
.	.	.	.	.	.	.	.	16ee\	.	.	.	.	.	.	.	.	.	.	.	.	.	.	.	.	.	.	.	.	.	.	.	.	.	.
.	.	.	|8f\J	.	8a|/J	8d\J	.	16ff\	.	.	.	.	8d\	-rem	.	8f\	-rem	.	8a\	-rem	.	.	.	.	.	.	.	.	.	.	.	.	.	.
.	.	.	.	.	.	.	.	16gg\JJ)	.	.	.	.	.	.	.	.	.	.	.	.	.	.	.	.	.	.	.	.	.	.	.	.	.	.
=9	=9	=9	=9	=9	=9	=9	=9	=9	=9	=9	=9	=9	=9	=9	=9	=9	=9	=9	=9	=9	=9	=9	=9	=9	=9	=9	=9	=9	=9	=9	=9	=9	=9	=9
*	*	*	*tremolo	*	*	*	*	*	*	*	*	*	*	*	*	*	*	*	*	*	*	*	*	*	*	*	*	*	*	*	*	*	*	*
!	!	!	!LO:TX:t=P:problem:2\right:global	!	!	!	!	!	!	!	!	!	!	!	!	!	!	!	!	!	!	!	!	!	!	!	!	!	!	!	!	!	!	!
!	!	!	!LO:TX:t=P:problem:6 kresek art.	!	!	!	!	!	!	!	!	!	!	!	!	!	!	!	!	!	!	!	!	!	!	!	!	!	!	!	!	!	!	!
*	*	*	*2\right	*	*	*	*	*	*	*	*	*	*	*	*	*	*	*	*	*	*	*	*	*	*	*	*	*	*	*	*	*	*	*
2.r	.	.	8f\L	.	8a|/L	8d\L	.	4aa|\	.	2.r	.	.	4d\	Cae-	.	4f\	Cae-	.	4a\	Cae-	.	2.r	.	2.ryy	2.r	.	2.r	.	2.r	.	2.r	.	4aa|\	mf
.	.	.	8f\	.	8a|/	8d\	.	.	.	.	.	.	.	.	.	.	.	.	.	.	.	.	.	.	.	.	.	.	.	.	.	.	.	.
.	.	.	8f\	.	8a|/	8d\	.	4ff|\	.	.	.	.	8d\	-li	.	8f\	-li	.	8a\	-li	.	.	.	.	.	.	.	.	.	.	.	.	4ff|\	.
.	.	.	8f\	.	8a|/	8d\	.	.	.	.	.	.	8d\	et	.	8f\	et	.	8a\	et	.	.	.	.	.	.	.	.	.	.	.	.	.	.
.	.	.	8f\	.	8a|/	8d\	.	4dd|\	.	.	.	.	8d\	ter-	.	8f\	Ter-	.	8a\	Ter-	.	.	.	.	.	.	.	.	.	.	.	.	4dd|\	.
!	!	!	!	!	!LO:LB:g=original	!	!	!	!	!	!	!	!	!	!	!	!	!	!	!	!	!	!	!	!	!	!	!	!	!	!	!	!	!
.	.	.	8f\J	.	8a|/J	8d\J	.	.	.	.	.	.	8d\	-rae	.	8f\	-rae	.	8a\	-rae	.	.	.	.	.	.	.	.	.	.	.	.	.	.
=10	=10	=10	=10	=10	=10	=10	=10	=10	=10	=10	=10	=10	=10	=10	=10	=10	=10	=10	=10	=10	=10	=10	=10	=10	=10	=10	=10	=10	=10	=10	=10	=10	=10	=10
!LO:TX:b:i:t=unis	!	!	!	!	!	!	!	!	!	!	!	!	!	!	!	!	!	!	!	!	!	!	!	!	!	!	!	!	!	!	!	!	!	!
!	!	!	!LO:TX:t=P:problem:6 kresek art.	!	!	!	!	!LO:TX:a:t=1	!	!	!	!	!	!	!	!	!	!	!	!	!	!	!	!	!	!	!	!	!	!	!LO:TX:b:t=|	!	!LO:TX:a:t=2	!
|4A\	.	.	8f\L	.	8a|/L	8d\L	.	2.r	.	(4A\	Cre-	.	8d\	Vi-	.	8f\	Vi-	.	8a\	Vi-	.	2.r	.	2.ryy	2.r	.	2.r	.	2.r	.	4a|/	mf	2.r	.
.	.	.	8f\	.	8a|/	8d\	.	.	.	.	.	.	8d\	-ſi-	.	8f\	-ſi-	.	8a\	-ſi-	.	.	.	.	.	.	.	.	.	.	.	.	.	.
|4F\	.	.	8f\	.	8a|/	8d\	.	.	.	4F\)	.	.	8d\	-bi-	.	8f\	-bi-	.	8a\	-bi-	.	.	.	.	.	.	.	.	.	.	4f|/	.	.	.
.	.	.	8f\	.	8a|/	8d\	.	.	.	.	.	.	8d\	-li-	.	8f\	-li-	.	8a\	-li-	.	.	.	.	.	.	.	.	.	.	.	.	.	.
|4D\	.	.	8f\	.	8a|/	8d\	.	.	.	4D|\	-do	.	4d\	-um	.	4f\	-um	.	4a\	-um	.	.	.	.	.	.	.	.	.	.	4d|/	.	.	.
.	.	.	8f\J	.	8a|/J	8d\J	.	.	.	.	.	.	.	.	.	.	.	.	.	.	.	.	.	.	.	.	.	.	.	.	.	.	.	.
!	!	!	!	!	!	!	!	!LO:LB:g=original	!	!	!	!	!	!	!	!	!	!	!	!	!	!	!	!	!	!	!	!	!	!	!	!	!	!
=11	=11	=11	=11	=11	=11	=11	=11	=11	=11	=11	=11	=11	=11	=11	=11	=11	=11	=11	=11	=11	=11	=11	=11	=11	=11	=11	=11	=11	=11	=11	=11	=11	=11	=11
*	*	*	*	*	*tremolo	*	*	*	*	*	*	*	*	*	*	*	*	*	*	*	*	*	*	*	*	*	*	*	*	*	*	*	*	*
!LO:TX:a:t=2	!	!	!LO:TX:t=P:problem:6 kresek art.	!	!LO:TX:t=P:problem:6 kresek art.	!	!	!	!	!LO:TX:a:t=2	!	!	!	!	!	!	!	!	!	!	!	!	!	!	!	!	!	!	!	!	!LO:TX:a:t=2	!	!	!
*	*	*	*	*	*	*2\right	*	*	*	*	*	*	*	*	*	*	*	*	*	*	*	*	*	*	*	*	*	*	*	*	*	*	*	*
2.r	.	.	8f\L	.	8a/L	2.d\	.	4r	.	2.r	.	.	4.d\	o-	.	4.f\	o-	.	4.a\	o-	.	2.r	.	2.ryy	2.r	.	2.r	.	2.r	.	2.r	.	2.r	.
.	.	.	8f\	.	8a/	.	.	.	.	.	.	.	.	.	.	.	.	.	.	.	.	.	.	.	.	.	.	.	.	.	.	.	.	.
.	.	.	8f\	.	8a/	.	.	4r	.	.	.	.	.	.	.	.	.	.	.	.	.	.	.	.	.	.	.	.	.	.	.	.	.	.
.	.	.	8f\	.	8a/	.	.	.	.	.	.	.	8d\	-mni-	.	8f\	-mni-	.	8a\	-mni-	.	.	.	.	.	.	.	.	.	.	.	.	.	.
.	.	.	8f\	.	8a/	.	.	(16dd\LL	.	.	.	.	4d\	-um	.	4f\	-um	.	8a\	-um	.	.	.	.	.	.	.	.	.	.	.	.	.	.
.	.	.	.	.	.	.	.	16ee\	.	.	.	.	.	.	.	.	.	.	.	.	.	.	.	.	.	.	.	.	.	.	.	.	.	.
.	.	.	8f\J	.	8a/J	.	.	16ff\	.	.	.	.	.	.	.	.	.	.	8r	.	.	.	.	.	.	.	.	.	.	.	.	.	.	.
.	.	.	.	.	.	.	.	16gg\JJ)	.	.	.	.	.	.	.	.	.	.	.	.	.	.	.	.	.	.	.	.	.	.	.	.	.	.
=12	=12	=12	=12	=12	=12	=12	=12	=12	=12	=12	=12	=12	=12	=12	=12	=12	=12	=12	=12	=12	=12	=12	=12	=12	=12	=12	=12	=12	=12	=12	=12	=12	=12	=12
!	!	!	!LO:TX:t=P:problem:6 kresek art.	!	!LO:TX:t=P:problem:6 kresek art.	!	!	!	!	!	!	!	!	!	!	!	!	!	!	!	!	!	!	!	!	!	!	!	!	!	!	!	!	!
2.r	.	.	8f\L	.	8a/L	2.d\	.	4aa|\	.	2.r	.	.	4.d\	Et	.	4.f\	Et	.	4.a\	Et	.	2.r	.	2.ryy	2.r	.	2.r	.	2.r	.	2.r	.	4aa|\	.
.	.	.	8f\	.	8a/	.	.	.	.	.	.	.	.	.	.	.	.	.	.	.	.	.	.	.	.	.	.	.	.	.	.	.	.	.
.	.	.	8f\	.	8a/	.	.	4ff|\	.	.	.	.	.	.	.	.	.	.	.	.	.	.	.	.	.	.	.	.	.	.	.	.	4ff|\	.
.	.	.	8f\	.	8a/	.	.	.	.	.	.	.	8d\	in-	.	8f\	in-	.	8a\	in-	.	.	.	.	.	.	.	.	.	.	.	.	.	.
!	!	!	!	!	!	!	!	!	!	!	!	!	!	!	!	!	!	!	!LO:LB:g=original	!	!	!	!	!	!	!	!	!	!	!	!	!	!	!
.	.	.	8f\	.	8a/	.	.	4dd|\	.	.	.	.	8d\	-Vi-	.	8f\	-Vi-	.	8a\	-Vi-	.	.	.	.	.	.	.	.	.	.	.	.	4dd|\	.
.	.	.	8f\J	.	8a/J	.	.	.	.	.	.	.	8d\	-ſi-	.	8f\	-ſi-	.	8a\	-ſi-	.	.	.	.	.	.	.	.	.	.	.	.	.	.
!LO:LB:g=original	!	!	!	!	!	!	!	!	!	!	!	!	!	!	!	!	!	!	!	!	!	!	!	!	!	!	!	!	!	!	!	!	!	!
=13	=13	=13	=13	=13	=13	=13	=13	=13	=13	=13	=13	=13	=13	=13	=13	=13	=13	=13	=13	=13	=13	=13	=13	=13	=13	=13	=13	=13	=13	=13	=13	=13	=13	=13
!LO:TX:b:i:t=unis	!	!	!	!	!	!	!	!	!	!	!	!	!	!	!	!	!	!	!	!	!	!	!	!	!	!	!	!	!	!	!	!	!	!
!	!	!	!LO:TX:t=P:problem:6 kresek art.	!	!LO:TX:t=P:problem:6 kresek art.	!	!	!LO:TX:a:t=1	!	!	!	!	!	!	!	!	!	!	!	!	!	!	!	!	!	!	!	!	!	!	!	!	!LO:TX:a:t=2	!
|4A\	.	.	8f\L	.	8a/L	2.d\	.	2.r	.	4A\	in	.	4.d\	-bi-	.	4.f\	-bi-	.	4.a\	-bi-	.	2.r	.	2.ryy	2.r	.	2.r	.	2.r	.	4a|/	.	2.r	.
.	.	.	8f\	.	8a/	.	.	.	.	.	.	.	.	.	.	.	.	.	.	.	.	.	.	.	.	.	.	.	.	.	.	.	.	.
|4F\	.	.	8f\	.	8a/	.	.	.	.	4F\	u-	.	.	.	.	.	.	.	.	.	.	.	.	.	.	.	.	.	.	.	4f|/	.	.	.
.	.	.	8f\	.	8a/	.	.	.	.	.	.	.	8d\	-li-	.	8f\	-li-	.	8a\	-li-	.	.	.	.	.	.	.	.	.	.	.	.	.	.
|4D\	.	.	8f\	.	8a/	.	.	.	.	4D\	-num	.	4d\	-um	.	4f\	-um	.	4a\	-um	.	.	.	.	.	.	.	.	.	.	4d|/	.	.	.
.	.	.	8f\J	.	8a/J	.	.	.	.	.	.	.	.	.	.	.	.	.	.	.	.	.	.	.	.	.	.	.	.	.	.	.	.	.
!	!	!	!	!	!	!	!	!	!	!LO:LB:g=original	!	!LO:LB:g=original	!	!	!	!	!	!	!	!	!	!	!	!	!	!	!	!	!	!	!	!	!	!
=14	=14	=14	=14	=14	=14	=14	=14	=14	=14	=14	=14	=14	=14	=14	=14	=14	=14	=14	=14	=14	=14	=14	=14	=14	=14	=14	=14	=14	=14	=14	=14	=14	=14	=14
!LO:TX:a:t=2	!	!	!LO:TX:t=P:problem:6 kresek art.	!	!LO:TX:t=P:problem:6 kresek art.	!	!	!	!	!LO:TX:a:t=2	!	!	!	!	!	!	!	!	!	!	!	!	!	!	!	!	!	!	!	!	!	!	!	!
2.r	.	.	8f\L	.	8a/L	2.d\	.	4r	.	2.r	.	.	2d\	Et	.	2f\	Et	.	2a\	Et	.	2.r	.	2.ryy	2.r	.	2.r	.	2.r	.	2.r	.	2.r	.
.	.	.	8f\	.	8a/	.	.	.	.	.	.	.	.	.	.	.	.	.	.	.	.	.	.	.	.	.	.	.	.	.	.	.	.	.
.	.	.	8f\	.	8a/	.	.	4r	.	.	.	.	.	.	.	.	.	.	.	.	.	.	.	.	.	.	.	.	.	.	.	.	.	.
.	.	.	8f\	.	8a/	.	.	.	.	.	.	.	.	.	.	.	.	.	.	.	.	.	.	.	.	.	.	.	.	.	.	.	.	.
.	.	.	8f\	.	8a/	.	.	16dd\LL	.	.	.	.	4d\	in	.	4f\	in	.	4a\	in	.	.	.	.	.	.	.	.	.	.	.	.	.	.
.	.	.	.	.	.	.	.	(16ee\	.	.	.	.	.	.	.	.	.	.	.	.	.	.	.	.	.	.	.	.	.	.	.	.	.	.
.	.	.	8f\J	.	8a/J	.	.	16ff\	.	.	.	.	.	.	.	.	.	.	.	.	.	.	.	.	.	.	.	.	.	.	.	.	.	.
.	.	.	.	.	.	.	.	16gg\JJ)	.	.	.	.	.	.	.	.	.	.	.	.	.	.	.	.	.	.	.	.	.	.	.	.	.	.
!	!	!	!LO:LB:g=original	!	!	!	!	!	!	!	!	!	!	!	!	!	!	!	!	!	!	!	!	!	!	!	!	!	!	!	!	!	!	!
=15	=15	=15	=15	=15	=15	=15	=15	=15	=15	=15	=15	=15	=15	=15	=15	=15	=15	=15	=15	=15	=15	=15	=15	=15	=15	=15	=15	=15	=15	=15	=15	=15	=15	=15
2.r	.	.	4f\	.	4a/	4d\	.	4aa|\	.	2.r	.	.	2d\	u-	.	2f\	u-	.	(4aa\	u-	.	2.r	.	2.ryy	2.r	.	2.r	.	2.r	.	4r	.	4r	.
.	.	.	4d\	.	4a/	4ryy	.	4ff|\	.	.	.	.	.	.	.	.	.	.	4ff\)	.	.	.	.	.	.	.	.	.	.	.	4dd|\	.	4ff\	p
!	!	!	!	!	!	!	!	!	!	!	!	!	!LO:LB:g=original	!	!	!	!	!	!	!	!	!	!	!	!	!	!	!	!	!	!	!	!	!
.	.	.	4c\	.	4g/	4ryy	.	4dd|\	.	.	.	.	4c\	-num	.	4g\	-num	.	4ee\	-num	.	.	.	.	.	.	.	.	.	.	4cc|\	.	4ee\	.
*	*	*	*	*	*v	*v	*	*	*	*	*	*	*	*	*	*	*	*	*	*	*	*	*	*	*	*	*	*	*	*	*	*	*	*
=16	=16	=16	=16	=16	=16	=16	=16	=16	=16	=16	=16	=16	=16	=16	=16	=16	=16	=16	=16	=16	=16	=16	=16	=16	=16	=16	=16	=16	=16	=16	=16	=16	=16
4G\	6	.	4c\	.	4g/	.	4ee\	.	4G\	Do-	.	4c\	Do-	.	4g\	Do-	.	4ee\	Do-	.	2.r	.	2.ryy	2.r	.	4e/	f	4cc\	f	4cc\	.	(4ee\	.
4F\	6	.	(4B\	.	4f/	.	(4dd\	.	4F\	-mi-	.	4B\	-mi-	.	4f\	-mi-	.	4dd\	-mi-	.	.	.	.	.	.	4g/	.	4dd\	.	4b\	.	4dd\)	.
4E\	6	.	4c\)	.	4e/	.	4cc\)	.	4E\	-num	.	4c\	-num	.	4e\	-num	.	4cc\	-num	.	.	.	.	.	.	4cc\	.	4ee\	.	4cc\	.	4cc\	.
*	*	*	*	*	*	*	*	*	*	*	*	*	*	*	*	*	*	*	*	*	*	*	*	*	*	*	*	*	*	*	*	*	*
!	!	!	!	!	!	!	!	!	!	!	!	!	!	!	!	!	!	!	!	!	!	!	!	!	!	!	!	!	!	!LO:LB:g=original	!	!	!
=17	=17	=17	=17	=17	=17	=17	=17	=17	=17	=17	=17	=17	=17	=17	=17	=17	=17	=17	=17	=17	=17	=17	=17	=17	=17	=17	=17	=17	=17	=17	=17	=17	=17
!	!	!	!	!	!	!	!	!	!	!	!	!	!	!	!	!	!	!	!	!	!	!	!	!	!	!LO:TX:a:t=1	!	!LO:TX:a:t=1	!	!	!	!	!
.	.	.	.	.	.	.	.	.	.	.	.	.	.	.	.	.	.	8qqcc/	.	.	.	.	.	.	.	.	.	.	.	.	.	.	.
*	*	*	*	*	*	*	*	*	*	*	*	*	*	*	*	*	*	*	*	*	*	*	*	*	*	*	*	*	*	*2\right	*	*2\right	*
4D\	5	.	4g\	.	4d/	.	4b|\	.	(4D/	Je-	.	2G/	Je-	.	2d\	Je-	.	2b\	Je-	.	2.r	.	2.ryy	2.r	.	2.r	.	2.r	.	2g/	.	2b\	.
4BB/	.	.	4d\	.	(4g/	.	(4b\	.	4BB/)	.	.	.	.	.	.	.	.	.	.	.	.	.	.	.	.	.	.	.	.	.	.	.	.
!	!	!	!	!	!	!	!	!	!	!	!	!	!	!	!	!	!	!	!	!	!	!	!	!	!	!	!	!	!	!	!	!LO:LB:g=original	!
4C/	.	.	4d\	.	4a/)	.	4cc\)	.	4C/	-sum	.	4A/	-sum	.	4d\	-sum	.	4cc\	-sum	.	.	.	.	.	.	.	.	.	.	4a/	.	4cc\	.
=18	=18	=18	=18	=18	=18	=18	=18	=18	=18	=18	=18	=18	=18	=18	=18	=18	=18	=18	=18	=18	=18	=18	=18	=18	=18	=18	=18	=18	=18	=18	=18	=18	=18
4G\	3	.	4d\	.	4b/	.	4dd|\	.	4G\	Chris-	.	4B\	X-	.	4g\	Xs-	.	4dd\	Chris-	.	2.r	.	2.ryy	2.r	.	4g/	.	4dd\	.	4b/	.	4dd|\	.
4GG/	.	.	4d\	.	4b/	f	4g|/	.	4GG/	-tum	.	4B\	-tum	.	4g\	-tum	.	4g\	-tum	.	.	.	.	.	.	4g/	.	4dd\	.	4b/	.	4g|/	.
4r	.	.	4r	.	4r	.	4r	f	4r	.	.	4r	.	.	4r	.	.	4r	.	.	.	.	.	.	.	4r	.	4r	.	4r	.	4r	.
=19	=19	=19	=19	=19	=19	=19	=19	=19	=19	=19	=19	=19	=19	=19	=19	=19	=19	=19	=19	=19	=19	=19	=19	=19	=19	=19	=19	=19	=19	=19	=19	=19	=19
!	!	!	!	!	!	!	!	!	!	!	!	!	!	!	!	!	!	!	!	!	!	!	!	!	!	!	!	!	!	!	!LO:DY:a	!	!
*	*	*	*Xtremolo	*	*Xtremolo	*	*	*	*	*	*	*	*	*	*	*	*	*	*	*	*	*	*	*	*	*	*	*	*	*	*	*	*2\right
8C/L	5 3	f	(8c\L	f	(8e/L	.	4.G/ 4.e 4.cc	.	4.C/	fi-	.	4.G/	fi-	.	4.e\	fi-	.	4.cc\	fi-	.	8C/L	f	2.ryy	8cc\L	f	4.e/	f	4.cc\	f	2.e/	f	2.cc\	f
8C/	.	.	8e\)	.	8g/)	.	.	.	.	.	.	.	.	.	.	.	.	.	.	.	16C/L	.	.	16cc\L	.	.	.	.	.	.	.	.	.
.	.	.	.	.	.	.	.	.	.	.	.	.	.	.	.	.	.	.	.	.	16C/JJ	.	.	16cc\JJ	.	.	.	.	.	.	.	.	.
*	*	*	*	*	*	*	*	*	*	*	*	*	*	*	*	*	*	*	*	*	*tremolo	*	*	*	*	*	*	*	*	*	*	*	*
*	*	*	*	*	*	*	*	*	*	*	*	*	*	*	*	*	*	*	*	*	*	*	*	*tremolo	*	*	*	*	*	*	*	*	*
*	*	*	*	*	*	*	*	*	*	*	*	*	*	*	*	*	*	*	*	*	*	*	*	*2\right	*	*	*	*	*	*	*	*	*
8C/	.	.	(8c\	.	(8e/	.	.	.	.	.	.	.	.	.	.	.	.	.	.	.	8C/L	.	.	8cc\L	.	.	.	.	.	.	.	.	.
8C/	.	.	8e\)	.	8g/)	.	8cc\	.	8C/	-li-	.	8G/	-li-	.	8e\	-li-	.	8cc\	-li-	.	8C/	.	.	8cc\	.	8e/	.	8cc\	.	.	.	.	.
!	!	!	!	!	!	!	!	!	!	!	!	!	!	!	!	!	!	!	!	!	!	!	!	!	!	!	!	!LO:LB:g=original	!	!	!	!	!
8C/	.	.	(8c\	.	(8e/	.	4cc\	.	4C/	-um	.	4G/	-um	.	4e\	-um	.	4cc\	-um	.	8C/	.	.	8cc\	.	4e/	.	4cc\	.	.	.	.	.
8C/J	.	.	8e\J)	.	8g/J)	.	.	.	.	.	.	.	.	.	.	.	.	.	.	.	8C/J	.	.	8cc\J	.	.	.	.	.	.	.	.	.
=20	=20	=20	=20	=20	=20	=20	=20	=20	=20	=20	=20	=20	=20	=20	=20	=20	=20	=20	=20	=20	=20	=20	=20	=20	=20	=20	=20	=20	=20	=20	=20	=20	=20
*2/right	*	*	*	*	*	*	*	*	*	*	*	*	*	*	*	*	*	*	*	*	*	*	*	*	*	*	*	*	*	*	*	*	*
*tremolo	*	*	*tremolo	*	*	*	*	*	*	*	*	*	*	*	*	*	*	*	*	*	*	*	*	*Xtremolo	*	*	*	*	*	*	*	*	*
8C/L	.	.	(16c\LL	.	(8e/L	.	4cc\	.	8C/	De-	.	4G/	De-	.	8e\	De-	.	8cc\	De-	.	2.C/	.	2.ryy	4cc\	.	4e/	.	4cc\	.	2.e/	.	4cc\	.
.	.	.	16e\)	.	.	.	.	.	.	.	.	.	.	.	.	.	.	.	.	.	.	.	.	.	.	.	.	.	.	.	.	.	.
8C/	.	.	16c\	.	8g/)	.	.	.	8C/	-i	.	.	.	.	8e\	-i	.	8cc\	-i	.	.	.	.	.	.	.	.	.	.	.	.	.	.
.	.	.	16e\)	.	.	.	.	.	.	.	.	.	.	.	.	.	.	.	.	.	.	.	.	.	.	.	.	.	.	.	.	.	.
!	!	!	!	!	!	!	!	!	!	!	!	!	!	!	!	!	!	!LO:LB:g=original	!	!	!	!	!	!	!	!	!	!	!	!	!	!	!
8C/	.	.	16c\	.	(8e/	.	4ee\	.	4C/	u-	.	4G/	-i	.	4g\	u-	.	4ee\	u-	.	.	.	.	8cc\L	.	4c/	.	4ee\	.	.	.	4ee\	.
.	.	.	16e\)	.	.	.	.	.	.	.	.	.	.	.	.	.	.	.	.	.	.	.	.	.	.	.	.	.	.	.	.	.	.
8C/	.	.	16c\	.	8g/)	.	.	.	.	.	.	.	.	.	.	.	.	.	.	.	.	.	.	8cc\J	.	.	.	.	.	.	.	.	.
.	.	.	16e\)	.	.	.	.	.	.	.	.	.	.	.	.	.	.	.	.	.	.	.	.	.	.	.	.	.	.	.	.	.	.
.	.	.	.	.	.	.	(8qqdd/	.	.	.	.	.	.	.	.	.	.	.	.	.	.	.	.	.	.	.	.	.	.	.	.	.	.
8C/	.	.	16c\	.	(8e/	.	4cc\)	.	4C/	-ni-	.	8G/	u-	.	4e\	-ni-	.	4cc\	-ni-	.	.	.	.	4cc\	.	4e/	.	4cc\	.	.	.	4cc\	.
.	.	.	16e\)	.	.	.	.	.	.	.	.	.	.	.	.	.	.	.	.	.	.	.	.	.	.	.	.	.	.	.	.	.	.
8C/J	.	.	16c\	.	8g/J)	.	.	.	.	.	.	8G/	-ni-	.	.	.	.	.	.	.	.	.	.	.	.	.	.	.	.	.	.	.	.
.	.	.	16e\)JJ	.	.	.	.	.	.	.	.	.	.	.	.	.	.	.	.	.	.	.	.	.	.	.	.	.	.	.	.	.	.
!	!	!	!LO:LB:g=original	!	!	!LO:LB:g=original	!	!	!	!	!	!	!	!	!	!	!	!	!	!	!	!	!	!LO:LB:g=original	!	!	!	!	!	!	!	!	!
=21	=21	=21	=21	=21	=21	=21	=21	=21	=21	=21	=21	=21	=21	=21	=21	=21	=21	=21	=21	=21	=21	=21	=21	=21	=21	=21	=21	=21	=21	=21	=21	=21	=21
.	.	.	.	.	.	.	8qqcc/	.	.	.	.	.	.	.	8qqe/	.	.	16qqcc/	.	.	.	.	.	.	.	.	.	.	.	.	.	.	.
*tremolo	*	*	*	*	*	*	*	*	*	*	*	*	*	*	*	*	*	*	*	*	*	*	*	*	*	*	*	*	*	*	*	*	*
*2\right	*	*	*	*	*	*	*	*	*	*	*	*	*	*	*	*	*	*	*	*	*	*	*	*	*	*	*	*	*	*	*	*	*
8D\L	6 3	.	(16B\LL	.	(8f/L	.	4.b\	.	4.D/	-ge-	.	4.G/	-ge-	.	4.d\	-ge-	.	4.b\	-ge-	.	8GG/L	.	2.ryy	8dd\L	.	4.g/	.	4.dd\	.	2.f/	.	2.dd\	.
.	.	.	16d\)	.	.	.	.	.	.	.	.	.	.	.	.	.	.	.	.	.	.	.	.	.	.	.	.	.	.	.	.	.	.
8D\	.	.	16B\	.	8g/)	.	.	.	.	.	.	.	.	.	.	.	.	.	.	.	16GG/L	.	.	16dd\L	.	.	.	.	.	.	.	.	.
.	.	.	16d\)	.	.	.	.	.	.	.	.	.	.	.	.	.	.	.	.	.	16GG/JJ	.	.	16dd\JJ	.	.	.	.	.	.	.	.	.
*	*	*	*	*	*	*	*	*	*	*	*	*	*	*	*	*	*	*	*	*	*	*	*	*tremolo	*	*	*	*	*	*	*	*	*
8D\	.	.	16B\	.	(8f/	.	.	.	.	.	.	.	.	.	.	.	.	.	.	.	8GG/L	.	.	8dd\L	.	.	.	.	.	.	.	.	.
.	.	.	16d\)	.	.	.	.	.	.	.	.	.	.	.	.	.	.	.	.	.	.	.	.	.	.	.	.	.	.	.	.	.	.
8D\	.	.	16B\	.	8g/)	.	8b\	.	8D/	-ni-	.	8G/	-ni-	.	8d\	-ni-	.	8b\	-ni-	.	8GG/	.	.	8dd\	.	8g/	.	8dd\	.	.	.	.	.
.	.	.	16d\)	.	.	.	.	.	.	.	.	.	.	.	.	.	.	.	.	.	.	.	.	.	.	.	.	.	.	.	.	.	.
8D\	.	.	16B\	.	(8f/	.	4b\	.	4D/	-tum	.	4G/	-tum	.	4d\	-tum	.	4b\	-tum	.	8GG/	.	.	8dd\	.	4g/	.	4dd\	.	.	.	.	.
.	.	.	16d\)	.	.	.	.	.	.	.	.	.	.	.	.	.	.	.	.	.	.	.	.	.	.	.	.	.	.	.	.	.	.
8D\J	.	.	16B\	.	8g/J)	.	.	.	.	.	.	.	.	.	.	.	.	.	.	.	8GG/J	.	.	8dd\J	.	.	.	.	.	.	.	.	.
.	.	.	16d\)JJ	.	.	.	.	.	.	.	.	.	.	.	.	.	.	.	.	.	.	.	.	.	.	.	.	.	.	.	.	.	.
!	!	!	!	!	!LO:LB:g=original	!	!	!	!	!	!	!	!	!	!	!	!	!	!	!	!LO:LB:g=original	!	!	!	!	!	!	!	!	!	!	!	!
=22	=22	=22	=22	=22	=22	=22	=22	=22	=22	=22	=22	=22	=22	=22	=22	=22	=22	=22	=22	=22	=22	=22	=22	=22	=22	=22	=22	=22	=22	=22	=22	=22	=22
*	*	*	*	*	*	*	*	*	*	*	*	*	*	*	*	*	*	*	*	*	*	*	*	*Xtremolo	*	*	*	*	*	*	*	*	*
8D\L	.	.	(16B\LL	.	(8f/L	.	4b\	.	8D/	Et	.	8G/	Et	.	8d\	Et	.	8b\	Et	.	2.GG/	.	2.ryy	4dd\	.	4g/	.	4dd\	.	2.f/	.	4dd\	.
.	.	.	16d\)	.	.	.	.	.	.	.	.	.	.	.	.	.	.	.	.	.	.	.	.	.	.	.	.	.	.	.	.	.	.
8D\	.	.	16B\	.	8g/)	.	.	.	8D/	ex	.	8G/	ex	.	8f\	ex	.	8dd\	ex	.	.	.	.	.	.	.	.	.	.	.	.	.	.
.	.	.	16d\)	.	.	.	.	.	.	.	.	.	.	.	.	.	.	.	.	.	.	.	.	.	.	.	.	.	.	.	.	.	.
8D\	.	.	16B\	.	(8f/	.	4ff\	.	4D/	Pa-	.	4G/	Pa-	.	4a\	Pa-	.	4ff\	Pa-	.	.	.	.	8dd\L	.	4dd\	.	4ff\	.	.	.	4ff\	.
.	.	.	16d\)	.	.	.	.	.	.	.	.	.	.	.	.	.	.	.	.	.	.	.	.	.	.	.	.	.	.	.	.	.	.
8D\	.	.	16B\	.	8g/)	.	.	.	.	.	.	.	.	.	.	.	.	.	.	.	.	.	.	8dd\J	.	.	.	.	.	.	.	.	.
.	.	.	16d\)	.	.	.	.	.	.	.	.	.	.	.	.	.	.	.	.	.	.	.	.	.	.	.	.	.	.	.	.	.	.
.	.	.	.	.	.	.	(16qqee/	.	.	.	.	.	.	.	.	.	.	.	.	.	.	.	.	.	.	.	.	.	.	.	.	.	.
8D\	.	.	16B\	.	(8f/	.	4dd\)	.	4D/	-tre	.	4G/	-tre	.	4f\	-tre	.	4dd\	-tre	.	.	.	.	4dd\	.	4g/	.	4dd\	.	.	.	4dd\	.
.	.	.	16d\)	.	.	.	.	.	.	.	.	.	.	.	.	.	.	.	.	.	.	.	.	.	.	.	.	.	.	.	.	.	.
8D\J	.	.	16B\	.	8g/J)	.	.	.	.	.	.	.	.	.	.	.	.	.	.	.	.	.	.	.	.	.	.	.	.	.	.	.	.
.	.	.	16d\)JJ	.	.	.	.	.	.	.	.	.	.	.	.	.	.	.	.	.	.	.	.	.	.	.	.	.	.	.	.	.	.
!	!	!	!	!	!	!	!	!	!	!	!	!	!	!	!LO:LB:g=original	!	!	!	!	!	!	!	!	!	!	!	!	!	!	!	!	!	!
=23	=23	=23	=23	=23	=23	=23	=23	=23	=23	=23	=23	=23	=23	=23	=23	=23	=23	=23	=23	=23	=23	=23	=23	=23	=23	=23	=23	=23	=23	=23	=23	=23	=23
.	.	.	.	.	.	.	8qqdd/	.	.	.	.	.	.	.	.	.	.	8qqdd/	.	p	.	.	.	.	.	.	.	.	.	.	.	.	.
8E\L	6 3	.	(16c\LL	.	(8e/L	.	4.cc\	.	2E\	na-	.	2G/	na-	.	2e\	na-	.	2cc\	na-	.	8C/L	.	2.ryy	8ee\L	.	4.cc\	.	4.ee\	.	2.g/	.	2.ee\	.
.	.	.	16e\)	.	.	.	.	.	.	.	.	.	.	.	.	.	.	.	.	.	.	.	.	.	.	.	.	.	.	.	.	.	.
8E\	.	.	16c\	.	8g/)	.	.	.	.	.	.	.	.	.	.	.	.	.	.	.	16C/L	.	.	16ee\L	.	.	.	.	.	.	.	.	.
.	.	.	16e\)	.	.	.	.	.	.	.	.	.	.	.	.	.	.	.	.	.	16C/JJ	.	.	16ee\JJ	.	.	.	.	.	.	.	.	.
*	*	*	*	*	*	*	*	*	*	*	*	*	*	*	*	*	*	*	*	*	*	*	*	*tremolo	*	*	*	*	*	*	*	*	*
8E\	.	.	16c\	.	(8e/	.	.	.	.	.	.	.	.	.	.	.	.	.	.	.	8C/L	.	.	8ee\L	.	.	.	.	.	.	.	.	.
.	.	.	16e\)	.	.	.	.	.	.	.	.	.	.	.	.	.	.	.	.	.	.	.	.	.	.	.	.	.	.	.	.	.	.
8E\	.	.	16c\	.	8g/)	.	8cc\	.	.	.	.	.	.	.	.	.	.	.	.	.	8C/	.	.	8ee\	.	8cc\	.	8ee\	.	.	.	.	.
.	.	.	16e\)	.	.	.	.	.	.	.	.	.	.	.	.	.	.	.	.	.	.	.	.	.	.	.	.	.	.	.	.	.	.
8E\	.	.	16c\	.	(8e/	.	4cc\	.	4E\	-tum	.	4G/	-tum	.	4e\	-tum	.	4cc\	-tum	.	8C/	.	.	8ee\	.	4cc\	.	4ee\	.	.	.	.	.
.	.	.	16e\)	.	.	.	.	.	.	.	.	.	.	.	.	.	.	.	.	.	.	.	.	.	.	.	.	.	.	.	.	.	.
8E\J	.	.	16c\	.	8g/J)	.	.	.	.	.	.	.	.	.	.	.	.	.	.	.	8C/J	.	.	8ee\J	.	.	.	.	.	.	.	.	.
.	.	.	16e\)JJ	.	.	.	.	.	.	.	.	.	.	.	.	.	.	.	.	.	.	.	.	.	.	.	.	.	.	.	.	.	.
!	!	!	!	!	!	!	!	!	!LO:LB:g=original	!	!	!	!	!	!	!	!	!	!	!	!	!	!	!	!	!	!	!	!	!	!	!	!
=24	=24	=24	=24	=24	=24	=24	=24	=24	=24	=24	=24	=24	=24	=24	=24	=24	=24	=24	=24	=24	=24	=24	=24	=24	=24	=24	=24	=24	=24	=24	=24	=24	=24
*	*	*	*	*	*	*	*	*	*	*	*	*	*	*	*	*	*	*	*	*	*	*	*	*Xtremolo	*	*	*	*	*	*	*	*	*
8E\L	.	.	(16c\LL	.	(8e/L	.	(4cc\	.	8E\	an-	.	8G/	an-	.	8e\	An-	.	8cc\	an-	f	2.C/	.	2.ryy	4ee\	.	4cc\	.	4ee\	.	2.g/	.	4ee\	.
.	.	.	16e\)	.	.	.	.	.	.	.	.	.	.	.	.	.	.	.	.	.	.	.	.	.	.	.	.	.	.	.	.	.	.
8E\	.	.	16c\	.	8g/)	.	.	.	8E\	-te	.	8G/	-te	.	8e\	-te	.	8cc\	-te	.	.	.	.	.	.	.	.	.	.	.	.	.	.
.	.	.	16e\)	.	.	.	.	.	.	.	.	.	.	.	.	.	.	.	.	.	.	.	.	.	.	.	.	.	.	.	.	.	.
8E\	.	.	16c\	.	(8e/	.	4gg\)	.	4E\	o-	.	4G/	o-	.	8e\	o-	.	8gg\	o-	.	.	.	.	8ee\L	.	4ee\	.	4gg\	.	.	.	4gg\	.
.	.	.	16e\)	.	.	.	.	.	.	.	.	.	.	.	.	.	.	.	.	.	.	.	.	.	.	.	.	.	.	.	.	.	.
8E\	.	.	16c\	.	8g/)	.	.	.	.	.	.	.	.	.	8e\	-mni-	.	8gg\	-mni-	.	.	.	.	8ee\J	.	.	.	.	.	.	.	.	.
.	.	.	16e\)	.	.	.	.	.	.	.	.	.	.	.	.	.	.	.	.	.	.	.	.	.	.	.	.	.	.	.	.	.	.
.	.	.	.	.	.	.	16qqff/	.	.	.	.	.	.	.	.	.	.	.	.	.	.	.	.	.	.	.	.	.	.	.	.	.	.
!	!	!	!	!	!	!	!	!	!	!	!	!	!	!	!	!	!	!	!	!	!	!	!	!LO:LB:g=original	!	!	!	!	!	!	!	!	!
8E\	.	.	16c\	.	(8e/	.	4ee\	.	8E\	-mni-	.	8G/	-mni-	.	4c\	-a	.	4ee\	-a	.	.	.	.	4ee\	.	4cc\	.	4ee\	.	.	.	4ee\	.
.	.	.	16e\)	.	.	.	.	.	.	.	.	.	.	.	.	.	.	.	.	.	.	.	.	.	.	.	.	.	.	.	.	.	.
8E\J	.	.	16c\	.	8g/J)	.	.	.	8E\	-a	.	8G/	-a	.	.	.	.	.	.	.	.	.	.	.	.	.	.	.	.	.	.	.	.
.	.	.	16e\)JJ	.	.	.	.	.	.	.	.	.	.	.	.	.	.	.	.	.	.	.	.	.	.	.	.	.	.	.	.	.	.
!	!	!	!	!	!	!	!	!	!	!	!	!LO:LB:g=original	!	!	!	!	!	!	!	!	!	!	!	!	!	!	!	!	!	!	!	!	!
=25	=25	=25	=25	=25	=25	=25	=25	=25	=25	=25	=25	=25	=25	=25	=25	=25	=25	=25	=25	=25	=25	=25	=25	=25	=25	=25	=25	=25	=25	=25	=25	=25	=25
!LO:TX:t=P:problem:mixed beam	!	!	!	!	!	!	!LO:TX:t=P:problem:klamra łukowa	!	!	!	!	!	!	!	!	!	!	!LO:TX:t=P:problem:klamra łukowa	!	!	!	!	!	!	!	!	!	!	!	!	!	!	!
8F\	.	.	8f\L	.	8a/L	.	12dd\L	.	(4F\	Sae-	.	(4A/	Sae-	.	(4f\	Sae-	.	12dd\L	Sae-	.	4r	.	2.ryy	4r	.	4r	.	4r	.	4g/	.	4dd\	.
.	.	.	.	.	.	.	12ff\	.	.	.	.	.	.	.	.	.	.	12ff\	.	.	.	.	.	.	.	.	.	.	.	.	.	.	.
8F\	.	.	8a\J	.	8f/J	.	.	.	.	.	.	.	.	.	.	.	.	.	.	.	.	.	.	.	.	.	.	.	.	.	.	.	.
.	.	.	.	.	.	.	12dd\J	.	.	.	.	.	.	.	.	.	.	12dd\J	.	.	.	.	.	.	.	.	.	.	.	.	.	.	.
8G\	.	.	8g\	.	4e/	.	4cc\	.	8G\)	.	.	8G/)	.	.	8e\)	.	.	8cc\	.	.	4C/	.	.	4ee\	.	4cc\	.	4ee\	.	4cc\	.	4ee\	.
8G\	.	.	4g\	.	.	.	.	.	8G\	-cu-	.	8G/	-cu-	.	8e\	-cu-	.	8cc\	-cu-	.	.	.	.	.	.	.	.	.	.	.	.	.	.
8GG/	.	.	.	.	4d/	.	4b\	.	4GG/	-la	.	4G/	-la	.	4d\	-la	.	4b\	-la	.	4GG/	.	.	4dd\	.	4g/	.	4dd\	.	4b\	.	4dd\	.
8GG/J	.	.	8g\	.	.	.	.	.	.	.	.	.	.	.	.	.	.	.	.	.	.	.	.	.	.	.	.	.	.	.	.	.	.
!	!	!	!	!	!	!	!	!	!	!	!	!	!	!	!	!	!	!LO:LB:g=original	!	!	!	!	!	!	!	!	!	!	!	!	!	!	!
=26	=26	=26	=26	=26	=26	=26	=26	=26	=26	=26	=26	=26	=26	=26	=26	=26	=26	=26	=26	=26	=26	=26	=26	=26	=26	=26	=26	=26	=26	=26	=26	=26	=26
!	!	!	!	!	!	!	!	!	!	!	!LO:DY:a	!	!	!LO:DY:a	!	!	!LO:DY:a	!	!	!	!LO:TX:a:t=4	!	!	!LO:TX:a:t=4	!	!	!	!	!	!LO:TX:a:t=4	!	!LO:TX:a:t=4	!
*	*	*	*Xtremolo	*	*	*	*	*	*	*	*	*	*	*	*	*	*	*	*	*	*	*	*	*	*	*	*	*	*	*	*	*	*
8C/L	8 5	p	(8c\L	p	(8e/L	.	4.cc\	p	2C/	De-	p	4G/	De-	p	2e\	De-	p	2cc\	De-	p	2.r	.	2.ryy	2.r	.	2.e/	p	[2.cc\	p	2.r	.	2.r	.
8C/	.	.	8e\)	.	8g/)	.	.	.	.	.	.	.	.	.	.	.	.	.	.	.	.	.	.	.	.	.	.	.	.	.	.	.	.
8C/	.	.	(8c\	.	(8e/	.	.	.	.	.	.	4G/	.	.	.	.	.	.	.	.	.	.	.	.	.	.	.	.	.	.	.	.	.
8C/	.	.	8e\)	.	8g/)	.	8cc\	.	.	.	.	.	.	.	.	.	.	.	.	.	.	.	.	.	.	.	.	.	.	.	.	.	.
8C/	.	.	(8c\	.	(8e/	.	4cc\	.	4C/	-um	.	4G/	um	.	4e\	-um	.	4cc\	-um	.	.	.	.	.	.	.	.	.	.	.	.	.	.
8C/J	.	.	8e\J)	.	8g/J)	.	.	.	.	.	.	.	.	.	.	.	.	.	.	.	.	.	.	.	.	.	.	.	.	.	.	.	.
!!LO:LB:g=original	*	*	*	*	*	*	*	*	*	*	*	*	*	*	*	*	*	*	*	*	*	*	*	*	*	*	*	*	*	*	*	*	*
=27	=27	=27	=27	=27	=27	=27	=27	=27	=27	=27	=27	=27	=27	=27	=27	=27	=27	=27	=27	=27	=27	=27	=27	=27	=27	=27	=27	=27	=27	=27	=27	=27	=27
*	*	*	*tremolo	*	*	*	*	*	*	*	*	*	*	*	*	*	*	*	*	*	*	*	*	*	*	*	*	*	*	*	*	*	*
*	*	*	*2\right	*	*	*	*	*	*	*	*	*	*	*	*	*	*	*	*	*	*	*	*	*	*	*	*	*	*	*	*	*	*
8C/L	.	.	(16c\LL	.	(8e/L	.	4cc\	.	4C/	De	.	2G/	De-	.	4e\	De	.	4cc\	de	.	2.r	.	2.ryy	2.r	.	2.e/	.	2.cc\]	.	2.r	.	2.r	.
.	.	.	16e\)	.	.	.	.	.	.	.	.	.	.	.	.	.	.	.	.	.	.	.	.	.	.	.	.	.	.	.	.	.	.
8C/	.	.	16c\	.	8g/)	.	.	.	.	.	.	.	.	.	.	.	.	.	.	.	.	.	.	.	.	.	.	.	.	.	.	.	.
.	.	.	16e\)	.	.	.	.	.	.	.	.	.	.	.	.	.	.	.	.	.	.	.	.	.	.	.	.	.	.	.	.	.	.
.	.	.	.	.	.	.	(16qqff/	.	.	.	.	.	.	.	.	.	.	16qqff/	.	.	.	.	.	.	.	.	.	.	.	.	.	.	.
8C/	.	.	16c\	.	(8e/	.	4ee\)	.	4E/	De-	.	.	.	.	4e\	De-	.	4ee\	De-	.	.	.	.	.	.	.	.	.	.	.	.	.	.
.	.	.	16e\)	.	.	.	.	.	.	.	.	.	.	.	.	.	.	.	.	.	.	.	.	.	.	.	.	.	.	.	.	.	.
8C/	.	.	16c\	.	8g/)	.	.	.	.	.	.	.	.	.	.	.	.	.	.	.	.	.	.	.	.	.	.	.	.	.	.	.	.
.	.	.	16e\)	.	.	.	.	.	.	.	.	.	.	.	.	.	.	.	.	.	.	.	.	.	.	.	.	.	.	.	.	.	.
.	.	.	.	.	.	.	(16qqdd/	.	.	.	.	.	.	.	.	.	.	16qqdd/	.	.	.	.	.	.	.	.	.	.	.	.	.	.	.
8C/	.	.	16c\	.	(8e/	.	4cc\)	.	4C/	-o	.	4G/	-o	.	4e\	-o	.	4cc\	-o	.	.	.	.	.	.	.	.	.	.	.	.	.	.
.	.	.	16e\)	.	.	.	.	.	.	.	.	.	.	.	.	.	.	.	.	.	.	.	.	.	.	.	.	.	.	.	.	.	.
8C/J	.	.	16c\	.	8g/J)	.	.	.	.	.	.	.	.	.	.	.	.	.	.	.	.	.	.	.	.	.	.	.	.	.	.	.	.
.	.	.	16e\)JJ	.	.	.	.	.	.	.	.	.	.	.	.	.	.	.	.	.	.	.	.	.	.	.	.	.	.	.	.	.	.
=28	=28	=28	=28	=28	=28	=28	=28	=28	=28	=28	=28	=28	=28	=28	=28	=28	=28	=28	=28	=28	=28	=28	=28	=28	=28	=28	=28	=28	=28	=28	=28	=28	=28
.	.	.	.	.	.	.	16qqcc/	.	.	.	.	.	.	.	.	.	.	8qqcc/	.	.	.	.	.	.	.	.	.	.	.	.	.	.	.
*	*	*	*Xtremolo	*	*	*	*	*	*	*	*	*	*	*	*	*	*	*	*	*	*	*	*	*	*	*	*	*	*	*	*	*	*
8D\L	.	.	(8B\L	.	(8f/L	.	4.b\	.	4D\	Lu-	.	4G/	Lu-	.	4f\	Lu-	.	4b\	Lu-	.	2.r	.	2.ryy	2.r	.	2.g/	.	2.dd\	.	2.r	.	2.r	.
8D\	.	.	8d\)	.	8g/)	.	.	.	.	.	.	.	.	.	.	.	.	.	.	.	.	.	.	.	.	.	.	.	.	.	.	.	.
8D\	.	.	(8B\	.	(8f/	.	.	.	4D\	-men	.	4G/	-men	.	4f\	-men	.	4b\	-men	.	.	.	.	.	.	.	.	.	.	.	.	.	.
8D\	.	.	8d\)	.	8g/)	.	8b\	.	.	.	.	.	.	.	.	.	.	.	.	.	.	.	.	.	.	.	.	.	.	.	.	.	.
8D\	.	.	(8B\	.	(8f/	.	4b\	.	4D\	de	.	4G/	de	.	4f\	de	.	4b\	de	.	.	.	.	.	.	.	.	.	.	.	.	.	.
8D\J	.	.	8d\J)	.	8g/J)	.	.	.	.	.	.	.	.	.	.	.	.	.	.	.	.	.	.	.	.	.	.	.	.	.	.	.	.
=29	=29	=29	=29	=29	=29	=29	=29	=29	=29	=29	=29	=29	=29	=29	=29	=29	=29	=29	=29	=29	=29	=29	=29	=29	=29	=29	=29	=29	=29	=29	=29	=29	=29
*	*	*	*tremolo	*	*	*	*	*	*	*	*	*	*	*	*	*	*	*	*	*	*	*	*	*	*	*	*	*	*	*	*	*	*
8D\L	6 5	.	(16B\LL	.	(8f/L	.	4b\	.	(4D\	Lu-	.	4.G/	Lu-	.	4.f\	Lu-	.	4b\	Lu-	.	2.r	.	2.ryy	2.r	.	2.g/	.	2.dd\	.	2.r	.	2.r	.
.	.	.	16d\)	.	.	.	.	.	.	.	.	.	.	.	.	.	.	.	.	.	.	.	.	.	.	.	.	.	.	.	.	.	.
8D\	.	.	16B\	.	8g/)	.	.	.	.	.	.	.	.	.	.	.	.	.	.	.	.	.	.	.	.	.	.	.	.	.	.	.	.
.	.	.	16d\)	.	.	.	.	.	.	.	.	.	.	.	.	.	.	.	.	.	.	.	.	.	.	.	.	.	.	.	.	.	.
.	.	.	.	.	.	.	(16qqgg/	.	.	.	.	.	.	.	.	.	.	.	.	.	.	.	.	.	.	.	.	.	.	.	.	.	.
8D\	.	.	16B\	.	(8f/	.	4ff\)	.	4F\)	.	.	.	.	.	.	.	.	4ff\	-mi-	.	.	.	.	.	.	.	.	.	.	.	.	.	.
.	.	.	16d\)	.	.	.	.	.	.	.	.	.	.	.	.	.	.	.	.	.	.	.	.	.	.	.	.	.	.	.	.	.	.
8D\	.	.	16B\	.	8g/)	.	.	.	.	.	.	8G/	-mi-	.	8f\	-mi-	.	.	.	.	.	.	.	.	.	.	.	.	.	.	.	.	.
.	.	.	16d\)	.	.	.	.	.	.	.	.	.	.	.	.	.	.	.	.	.	.	.	.	.	.	.	.	.	.	.	.	.	.
.	.	.	.	.	.	.	(16qqee/	.	.	.	.	.	.	.	.	.	.	.	.	.	.	.	.	.	.	.	.	.	.	.	.	.	.
8D\	.	.	16B\	.	(8f/	.	4dd\)	.	8D\	-mi-	.	4G/	-ne	.	4f\	-ne	.	4dd\	-ne	.	.	.	.	.	.	.	.	.	.	.	.	.	.
.	.	.	16d\)	.	.	.	.	.	.	.	.	.	.	.	.	.	.	.	.	.	.	.	.	.	.	.	.	.	.	.	.	.	.
8D\J	.	.	16B\	.	8g/J)	.	.	.	8D\	-ne	.	.	.	.	.	.	.	.	.	.	.	.	.	.	.	.	.	.	.	.	.	.	.
!	!	!	!LO:LB:g=original	!	!	!	!	!	!	!	!	!	!	!	!	!	!	!	!	!	!	!	!	!	!	!	!	!	!	!	!	!	!
.	.	.	16d\)JJ	.	.	.	.	.	.	.	.	.	.	.	.	.	.	.	.	.	.	.	.	.	.	.	.	.	.	.	.	.	.
=30	=30	=30	=30	=30	=30	=30	=30	=30	=30	=30	=30	=30	=30	=30	=30	=30	=30	=30	=30	=30	=30	=30	=30	=30	=30	=30	=30	=30	=30	=30	=30	=30	=30
.	.	.	.	.	.	.	16qqdd/	.	.	.	.	.	.	.	.	.	.	.	.	.	.	.	.	.	.	.	.	.	.	.	.	.	.
8E\L	.	.	(16c\LL	.	(8e/L	.	4.cc\	.	2E\	De-	.	2G/	De-	.	2e\	De-	.	2cc\	De-	.	8C/L	p	2.ryy	8ee\L	p	2.e/	.	2.cc\	.	2.g/	p	2.cc\	p
.	.	.	16e\)	.	.	.	.	.	.	.	.	.	.	.	.	.	.	.	.	.	.	.	.	.	.	.	.	.	.	.	.	.	.
8E\	.	.	16c\	.	8g/)	.	.	.	.	.	.	.	.	.	.	.	.	.	.	.	16C/L	.	.	16ee\L	.	.	.	.	.	.	.	.	.
.	.	.	16e\)	.	.	.	.	.	.	.	.	.	.	.	.	.	.	.	.	.	16C/JJ	.	.	16ee\JJ	.	.	.	.	.	.	.	.	.
*	*	*	*	*	*	*	*	*	*	*	*	*	*	*	*	*	*	*	*	*	*	*	*	*tremolo	*	*	*	*	*	*	*	*	*
8E\	.	.	16c\	.	(8e/	.	.	.	.	.	.	.	.	.	.	.	.	.	.	.	8C/L	.	.	8ee\L	.	.	.	.	.	.	.	.	.
.	.	.	16e\)	.	.	.	.	.	.	.	.	.	.	.	.	.	.	.	.	.	.	.	.	.	.	.	.	.	.	.	.	.	.
8E\	.	.	16c\	.	8g/)	.	8cc\	.	.	.	.	.	.	.	.	.	.	.	.	.	8C/	.	.	8ee\	.	.	.	.	.	.	.	.	.
.	.	.	16e\)	.	.	.	.	.	.	.	.	.	.	.	.	.	.	.	.	.	.	.	.	.	.	.	.	.	.	.	.	.	.
8E\	.	.	16c\	.	(8e/	.	4cc\	.	4E\	-um	.	4G/	-um	.	4e\	-um	.	4cc\	-um	.	8C/	.	.	8ee\	.	.	.	.	.	.	.	.	.
.	.	.	16e\)	.	.	.	.	.	.	.	.	.	.	.	.	.	.	.	.	.	.	.	.	.	.	.	.	.	.	.	.	.	.
8E\J	.	.	16c\	.	8g/J)	.	.	.	.	.	.	.	.	.	.	.	.	.	.	.	8C/J	.	.	8ee\J	.	.	.	.	.	.	.	.	.
.	.	.	16e\)JJ	.	.	.	.	.	.	.	.	.	.	.	.	.	.	.	.	.	.	.	.	.	.	.	.	.	.	.	.	.	.
!	!	!	!	!	!	!	!LO:LB:g=original	!	!	!	!	!	!	!LO:LB:g=original	!	!	!	!	!	!	!	!	!	!	!	!	!	!	!	!	!	!	!
=31	=31	=31	=31	=31	=31	=31	=31	=31	=31	=31	=31	=31	=31	=31	=31	=31	=31	=31	=31	=31	=31	=31	=31	=31	=31	=31	=31	=31	=31	=31	=31	=31	=31
8E\L	6 3	.	(16c\LL	.	(8e/L	.	4cc\	.	2E\	Ve-	.	2G/	Ve-	.	2e\	Ve-	.	(4cc\	Ve-	.	2.C/	.	2.ryy	4ee\	.	2.e/	.	2.cc\	.	2.g/	.	2.ee\	.
.	.	.	16e\)	.	.	.	.	.	.	.	.	.	.	.	.	.	.	.	.	.	.	.	.	.	.	.	.	.	.	.	.	.	.
8E\	.	.	16c\	.	8g/)	.	.	.	.	.	.	.	.	.	.	.	.	.	.	.	.	.	.	.	.	.	.	.	.	.	.	.	.
.	.	.	16e\)	.	.	.	.	.	.	.	.	.	.	.	.	.	.	.	.	.	.	.	.	.	.	.	.	.	.	.	.	.	.
.	.	.	.	.	.	.	(16qqaa/	.	.	.	.	.	.	.	.	.	.	.	.	.	.	.	.	.	.	.	.	.	.	.	.	.	.
*	*	*	*	*	*	*	*	*	*	*	*	*	*	*	*	*	*	*	*	*	*	*	*	*Xtremolo	*	*	*	*	*	*	*	*	*
8E\	.	.	16c\	.	(8e/	.	4gg\)	.	.	.	.	.	.	.	.	.	.	4gg\)	.	.	.	.	.	8ee\L	.	.	.	.	.	.	.	.	.
.	.	.	16e\)	.	.	.	.	.	.	.	.	.	.	.	.	.	.	.	.	.	.	.	.	.	.	.	.	.	.	.	.	.	.
8E\	.	.	16c\	.	8g/)	.	.	.	.	.	.	.	.	.	.	.	.	.	.	.	.	.	.	8ee\J	.	.	.	.	.	.	.	.	.
.	.	.	16e\)	.	.	.	.	.	.	.	.	.	.	.	.	.	.	.	.	.	.	.	.	.	.	.	.	.	.	.	.	.	.
.	.	.	.	.	.	.	(16qqff/	.	.	.	.	.	.	.	.	.	.	16qqff/	.	.	.	.	.	.	.	.	.	.	.	.	.	.	.
8E\	.	.	16c\	.	(8e/	.	4ee\)	.	4E\	-rum	.	4G/	-rum	.	4e\	-rum	.	4ee\	-rum	.	.	.	.	4ee\	.	.	.	.	.	.	.	.	.
.	.	.	16e\)	.	.	.	.	.	.	.	.	.	.	.	.	.	.	.	.	.	.	.	.	.	.	.	.	.	.	.	.	.	.
8E\J	.	.	16c\	.	8g/J)	.	.	.	.	.	.	.	.	.	.	.	.	.	.	.	.	.	.	.	.	.	.	.	.	.	.	.	.
.	.	.	16e\)JJ	.	.	.	.	.	.	.	.	.	.	.	.	.	.	.	.	.	.	.	.	.	.	.	.	.	.	.	.	.	.
!	!	!	!	!	!	!	!	!	!LO:LB:g=original	!	!	!	!	!	!	!	!	!	!	!	!	!	!	!	!	!	!	!	!	!	!	!	!
=32	=32	=32	=32	=32	=32	=32	=32	=32	=32	=32	=32	=32	=32	=32	=32	=32	=32	=32	=32	=32	=32	=32	=32	=32	=32	=32	=32	=32	=32	=32	=32	=32	=32
!	!	!	!	!	!	!	!LO:TX:t=P:problem:klamra łukowa, kropka zamiast numeru	!	!	!	!LO:DY:a	!	!	!LO:DY:a	!	!	!LO:DY:a	!	!	!	!	!	!	!	!	!	!	!	!	!	!	!	!
8F\L	.	f	(8f\L	.	8a/L	.	12dd\L	.	4F\	De-	f	4A/	De-	f	8f\	de	f	8dd\	de	f	4r	f	2.ryy	4r	f	4r	f	4r	f	4dd\	.	8dd\L	.
.	.	.	.	.	.	.	12ff\	.	.	.	.	.	.	.	.	.	.	.	.	.	.	.	.	.	.	.	.	.	.	.	.	.	.
8D\	.	.	8a\J)	.	8f/J	.	.	.	.	.	.	.	.	.	16f\	De-	.	16ff\	De-	.	.	.	.	.	.	.	.	.	.	.	.	8ff\J	.
.	.	.	.	.	.	.	12dd\J	.	.	.	.	.	.	.	.	.	.	.	.	.	.	.	.	.	.	.	.	.	.	.	.	.	.
.	.	.	.	.	.	.	.	.	.	.	.	.	.	.	16f\	-o	.	16dd\	-o	.	.	.	.	.	.	.	.	.	.	.	.	.	.
!	!	!	!	!	!	!	!	!	!LO:SIC:v:t=8G	!	!	!	!	!	!	!	!	!	!	!	!	!	!	!	!	!	!	!	!	!	!	!	!
8G\	4	.	4g\	.	4e/	.	4cc\	.	8F\	De-	.	8A/	De-	.	(4e\	Ve-	.	(4cc\	Ve-	.	4C/	.	.	4ee\	.	4cc\	.	4ee\	.	4cc\	.	4ee\	.
8G\	.	.	.	.	.	.	.	.	8D\	-o	.	8A/	-o	.	.	.	.	.	.	.	.	.	.	.	.	.	.	.	.	.	.	.	.
!	!	!	!	!	!	!	!	!	!	!	!	!LO:N:vis=2	!	!	!	!	!	!	!	!	!	!	!	!	!	!	!	!	!	!	!	!	!
8GG/	3	.	4g\	.	4d/	.	4b\	.	8G\L	Ve-	.	4G/	Ve-	.	4d\)	.	.	4b\)	.	.	4GG/	.	.	4dd\	.	4g/	.	4dd\	.	4f/	.	4dd\	.
8GG/J	.	.	.	.	.	.	.	.	8GG/J	.	.	.	.	.	.	.	.	.	.	.	.	.	.	.	.	.	.	.	.	.	.	.	.
=33	=33	=33	=33	=33	=33	=33	=33	=33	=33	=33	=33	=33	=33	=33	=33	=33	=33	=33	=33	=33	=33	=33	=33	=33	=33	=33	=33	=33	=33	=33	=33	=33	=33
2C/	.	.	4g\	.	4e/	.	4cc\	.	2C/	-ro	.	2G/	-ro	.	2e\	-ro	.	2cc\	-ro	.	2C/	.	2.ryy	2cc\	.	4c/	.	4cc\	.	4e/	.	4cc\	.
.	.	.	4r	.	16cc\LL	f	16ccc\LL	f	.	.	.	.	.	.	.	.	.	.	.	.	.	.	.	.	.	4r	.	4r	.	4r	.	4r	.
.	.	.	.	.	16b\	.	(16bb\	.	.	.	.	.	.	.	.	.	.	.	.	.	.	.	.	.	.	.	.	.	.	.	.	.	.
.	.	.	.	.	16a\	.	16aa\	.	.	.	.	.	.	.	.	.	.	.	.	.	.	.	.	.	.	.	.	.	.	.	.	.	.
.	.	.	.	.	16g\JJ	.	16gg\JJ	.	.	.	.	.	.	.	.	.	.	.	.	.	.	.	.	.	.	.	.	.	.	.	.	.	.
!LO:TX:b:t=Pedal	!	!	!	!	!	!	!	!	!	!	!	!	!	!	!	!	!	!	!	!	!	!	!	!	!	!	!	!	!	!	!	!	!
4r	.	.	4r	.	16f/LL	.	16ff\LL	.	4r	.	.	4r	.	.	4r	.	.	4r	.	.	4r	.	.	4r	.	4r	.	4r	.	4r	.	4r	.
.	.	.	.	.	16e/	.	16ee\	.	.	.	.	.	.	.	.	.	.	.	.	.	.	.	.	.	.	.	.	.	.	.	.	.	.
.	.	.	.	.	16d/	.	16dd\)	.	.	.	.	.	.	.	.	.	.	.	.	.	.	.	.	.	.	.	.	.	.	.	.	.	.
.	.	.	.	.	16c/JJ	.	16cc\JJ	.	.	.	.	.	.	.	.	.	.	.	.	.	.	.	.	.	.	.	.	.	.	.	.	.	.
!	!	!	!	!	!	!	!	!	!	!	!	!	!	!	!	!	!	!	!	!	!	!	!	!	!	!	!	!LO:LB:g=original	!	!	!	!	!
=34	=34	=34	=34	=34	=34	=34	=34	=34	=34	=34	=34	=34	=34	=34	=34	=34	=34	=34	=34	=34	=34	=34	=34	=34	=34	=34	=34	=34	=34	=34	=34	=34	=34
*	*	*	*	*	*^	*	*^	*	*	*	*	*	*	*	*	*	*	*	*	*	*	*	*	*	*	*	*	*	*	*	*	*	*
!	!	!	!	!	!	!	!	!	!	!	!LO:TX:a:t=6	!	!	!LO:TX:a:t=6	!	!	!LO:TX:a:t=6	!	!	!LO:TX:a:t=6	!	!	!	!	!	!	!	!LO:TX:b:i:t=Solo	!	!	!	!LO:TX:a:i:t=Solo	!	!	!
2C/	.	.	|4cc\	f	4f/	4ryy	.	4aa|\	4ryy	.	2.r	.	.	2.r	.	.	2.r	.	.	2.r	.	.	4r	.	2.ryy	4cc\	p	4r	.	4r	.	4r	.	4r	p
.	.	.	|4cc\	.	4e/	4ryy	.	4gg|\	4ryy	.	.	.	.	.	.	.	.	.	.	.	.	.	4r	.	.	4cc\	.	4r	.	4r	.	4r	.	4r	.
!	!	!	!	!	!	!	!	!	!	!	!	!	!	!	!	!	!	!	!	!	!	!	!	!	!	!	!	!LO:TX:t=P:problem:"NB" czerwonym atramentem	!	!LO:TX:b:t=Solo	!	!LO:TX:t=P:problem:"Dolce" czerwonym atramentem	!	!	!
!	!	!	!	!	!LO:TX:a:i:t=oboi	!	!	!LO:TX:a:i:t=oboi	!	!	!	!	!	!	!	!	!	!	!	!	!	!	!	!	!	!	!	!	!LO:DY:a	!	!	!LO:TX:b:i:t=Dolce	!	!LO:TX:b:i:t=Solo	!
4r	.	p	|4r	.	8b/L	4r	.	(8bb/L	4r	.	.	.	.	.	.	.	.	.	.	.	.	.	4C/	p	.	4r	.	4c/	p	4cc|\	.	(8b\L	.	(8bb\L	.
.	.	.	.	.	8cc/J	.	.	8ccc/J)	.	.	.	.	.	.	.	.	.	.	.	.	.	.	.	.	.	.	.	.	.	.	.	8cc\J)	.	8ccc\J)	.
!	!	!	!	!	!	!	!	!	!	!	!	!	!	!	!	!	!	!	!	!	!	!	!	!	!	!	!	!	!	!	!	!	!	!LO:LB:g=original	!
=35	=35	=35	=35	=35	=35	=35	=35	=35	=35	=35	=35	=35	=35	=35	=35	=35	=35	=35	=35	=35	=35	=35	=35	=35	=35	=35	=35	=35	=35	=35	=35	=35	=35	=35	=35
2C/	.	.	|4cc\	.	4f/	4ryy	.	4aa\	4ryy	.	2.r	.	.	2.r	.	.	2.r	.	.	2.r	.	.	4r	.	2.ryy	4cc\	.	4r	.	4r	p	4r	.	4r	.
.	.	.	|4cc\	.	4e/	4ryy	.	4gg\	4ryy	.	.	.	.	.	.	.	.	.	.	.	.	.	4r	.	.	4cc\	.	4r	.	4r	.	4r	.	4r	.
4r	.	.	4r	.	8b/L	4r	.	(8bb/L	4r	.	.	.	.	.	.	.	.	.	.	.	.	.	4C/	.	.	4r	.	4c/	.	4cc|\	.	(8b\L	.	(8bb\L	.
.	.	.	.	.	8cc/J	.	.	8ccc/J)	.	.	.	.	.	.	.	.	.	.	.	.	.	.	.	.	.	.	.	.	.	.	.	8cc\J)	.	8ccc\J)	.
!	!	!	!	!	!	!	!	!	!	!	!	!	!	!	!	!	!	!	!	!	!	!	!	!	!	!	!	!	!	!	!	!LO:LB:g=original	!	!	!
=36	=36	=36	=36	=36	=36	=36	=36	=36	=36	=36	=36	=36	=36	=36	=36	=36	=36	=36	=36	=36	=36	=36	=36	=36	=36	=36	=36	=36	=36	=36	=36	=36	=36	=36	=36
!	!	!	!	!	!	!	!	!	!	!	!	!	!	!	!	!	!	!	!	!	!	!	!	!	!	!	!	!LO:TX:t=P:problem:brak taktu	!	!	!	!	!	!	!
2C/	.	.	|4cc\	.	4f/	4ryy	.	4aa|\	4ryy	.	2.r	.	.	2.r	.	.	2.r	.	.	2.r	.	.	4r	.	2.ryy	4cc\	.	2.ryy	.	4r	.	4r	.	4r	.
.	.	.	|4cc\	.	4e/	4ryy	.	4gg|\	4ryy	.	.	.	.	.	.	.	.	.	.	.	.	.	4r	.	.	4cc\	.	.	.	4r	.	4r	.	4r	.
4r	.	.	4r	.	8b/L	4r	.	(8bb/L	4r	.	.	.	.	.	.	.	.	.	.	.	.	.	4C/	.	.	4r	.	.	.	4cc|\	.	(8b\L	.	(8bb\L	.
.	.	.	.	.	8cc/J	.	.	8ccc/J)	.	.	.	.	.	.	.	.	.	.	.	.	.	.	.	.	.	.	.	.	.	.	.	8cc\J)	.	8ccc\J)	.
*	*	*	*	*	*v	*v	*	*	*	*	*	*	*	*	*	*	*	*	*	*	*	*	*	*	*	*	*	*	*	*	*	*	*	*	*
=37	=37	=37	=37	=37	=37	=37	=37	=37	=37	=37	=37	=37	=37	=37	=37	=37	=37	=37	=37	=37	=37	=37	=37	=37	=37	=37	=37	=37	=37	=37	=37	=37	=37	=37
!LO:TX:a:t=3	!	!	!LO:TX:a:t=2	!	!LO:TX:a:t=1	!	!LO:TX:b:t=1	!	!	!	!	!	!	!	!	!	!	!	!	!	!	!LO:TX:a:t=3	!	!	!LO:TX:a:t=3	!	!LO:TX:a:t=2	!	!LO:TX:a:t=2	!	!LO:TX:a:t=1	!	!LO:TX:a:t=1	!
2.r	.	.	2.r	.	2.r	.	2ryy	2.r	.	2.r	.	.	2.r	.	.	2.r	.	.	2.r	.	.	2.r	.	2.ryy	2.r	.	2.r	.	2.r	.	2.r	.	2.r	.
.	.	.	.	.	.	.	4ryy	.	.	.	.	.	.	.	.	.	.	.	.	.	.	.	.	.	.	.	.	.	.	.	.	.	.	.
=38	=38	=38	=38	=38	=38	=38	=38	=38	=38	=38	=38	=38	=38	=38	=38	=38	=38	=38	=38	=38	=38	=38	=38	=38	=38	=38	=38	=38	=38	=38	=38	=38	=38	=38
*	*	*	*	*	*^	*	*	*	*	*	*	*	*	*	*	*	*	*	*	*	*	*	*	*	*	*	*	*	*	*	*	*	*	*
!	!	!	!	!	!	!	!	!	!	!	!	!	!	!	!	!	!	!	!	!	!	!	!	!	!	!	!	!	!	!	!	!LO:TX:a:i:t=Solo	!	!	!
!	!	!	!	!	!	!	!	!	!	!	!	!	!	!	!	!	!	!	!	!	!	!	!	!	!	!	!	!	!	!	!	!LO:TX:t=P:problem:"Dolce" czerwonym atramentem	!	!LO:TX:t=P:problem:"Solo Dolce" czerwonym atramentem	!
!	!	!	!	!	!LO:TX:a:t=1	!	!	!LO:TX:b:t=2	!	!	!	!	!	!	!	!	!	!	!	!	!	!	!	!	!	!	!	!	!	!	!	!LO:TX:b:i:t=Dolce	!	!LO:TX:b:i:t=Solo Dolce	!
2.r	.	.	2.r	.	2.r	4d\	.	(4dd/	2.r	.	2.r	.	.	2.r	.	.	2.r	.	.	2.r	.	.	2.r	.	2.ryy	2.r	.	2.r	.	2.r	.	4d/	.	(4dd\	.
.	.	.	.	.	.	4f\	.	4ff/	.	.	.	.	.	.	.	.	.	.	.	.	.	.	.	.	.	.	.	.	.	.	.	(4f/	.	4ff\	.
.	.	.	.	.	.	4a\	.	4aa/)	.	.	.	.	.	.	.	.	.	.	.	.	.	.	.	.	.	.	.	.	.	.	.	4a/)	.	4aa\)	.
=39	=39	=39	=39	=39	=39	=39	=39	=39	=39	=39	=39	=39	=39	=39	=39	=39	=39	=39	=39	=39	=39	=39	=39	=39	=39	=39	=39	=39	=39	=39	=39	=39	=39	=39	=39
*	*	*	*^	*	*	*	*	*	*	*	*	*	*	*	*	*	*	*	*	*	*	*	*	*	*	*	*	*	*	*	*	*	*	*	*
!	!	!	!LO:TX:b:t=1	!	!	!LO:TX:a:t=1	!	!	!LO:TX:b:t=3	!	!	!	!	!	!	!	!	!	!	!	!	!	!	!	!	!	!	!	!	!LO:DY:a	!	!	!	!	!	!
2.r	.	.	2g/	2.r	.	2.r	2e\	.	(2cc/	2.r	.	2.r	.	.	2.r	.	.	2.r	.	.	2.r	.	.	2.r	.	2.ryy	2.r	.	2G/	p	2g/	p	2e/	.	2cc\	.
.	.	.	4G/	.	.	.	4f\	.	4dd/)	.	.	.	.	.	.	.	.	.	.	.	.	.	.	.	.	.	.	.	4G/	.	4g/	.	4f/	.	4dd\	.
*	*	*	*	*	*	*	*	*	*v	*v	*	*	*	*	*	*	*	*	*	*	*	*	*	*	*	*	*	*	*	*	*	*	*	*	*	*
!	!	!	!	!	!	!	!	!	!	!	!	!	!	!	!LO:LB:g=original	!	!	!	!	!LO:LB:g=original	!	!LO:LB:g=original	!	!	!	!	!	!	!	!	!	!	!	!	!
=40	=40	=40	=40	=40	=40	=40	=40	=40	=40	=40	=40	=40	=40	=40	=40	=40	=40	=40	=40	=40	=40	=40	=40	=40	=40	=40	=40	=40	=40	=40	=40	=40	=40	=40	=40
!	!	!	!	!	!	!	!	!	!	!	!	!	!	!	!	!LO:DY:a	!	!	!LO:DY:a	!	!	!	!	!	!	!	!	!	!	!	!	!	!	!	!
4r	.	.	4c/	4r	.	4r	4e\	.	4cc\	.	4r	.	.	4r	.	.	4r	.	f	4r	.	.	4r	.	2.ryy	4r	.	4c/	.	4g/	.	4e/	.	4cc\	.
!LO:TX:b:t=organo Tutti	!	!	!	!	!	!	!	!	!	!	!	!	!	!	!	!	!	!	!	!	!	!	!	!	!	!	!	!	!LO:DY:a	!	!	!	!	!	!
*Xtremolo	*	*	*Xtremolo	*	*	*	*	*	*	*	*	*	*	*	*	*	*	*	*	*	*	*	*	*	*	*	*	*	*	*	*	*	*	*	*
8c\L	5 3	f	8g\L	4ryy	f	8cc\L	4ryy	f	16ee\LL	f	8c\	ge-	f	8e\	ge-	f	8g\	Ge-	.	8ee\	Ge-	f	8C/L	f	.	8ee\L	f	8g/L	f	8g/L	f	2cc\	.	2ee\	f
.	.	.	.	.	.	.	.	.	(16ff\	.	.	.	.	.	.	.	.	.	.	.	.	.	.	.	.	.	.	.	.	.	.	.	.	.	.
8c\	.	.	8g\	.	.	8cc\	.	.	16ee\	.	8c\	-ni-	.	8e\	-ni-	.	8g\	-ni-	.	8ee\	-ni-	.	16C/L	.	.	16ee\L	.	16g/L	.	16g/L	.	.	.	.	.
.	.	.	.	.	.	.	.	.	16dd\JJ)	.	.	.	.	.	.	.	.	.	.	.	.	.	16C/JJ	.	.	16ee\JJ	.	16g/JJ	.	16g/JJ	.	.	.	.	.
8c\	.	.	8g\	4ryy	.	8cc\	4ryy	.	16cc\LL	.	8c\	-tum	.	8e\	-tum	.	8g\	-tum	.	8ee\	-tum	.	8C/L	.	.	8ee\L	.	8g/L	.	8g/L	.	.	.	.	.
.	.	.	.	.	.	.	.	.	(16dd\	.	.	.	.	.	.	.	.	.	.	.	.	.	.	.	.	.	.	.	.	.	.	.	.	.	.
8c\J	.	.	8g\J	.	.	8cc\J	.	.	16ee\	.	8c\	non	.	8e\	non	.	8g\	non	.	8ee\	non	.	8C/J	.	.	8ee\J	.	8g/J	.	8g/J	.	.	.	.	.
.	.	.	.	.	.	.	.	.	16ff\JJ)	.	.	.	.	.	.	.	.	.	.	.	.	.	.	.	.	.	.	.	.	.	.	.	.	.	.
*	*	*	*v	*v	*	*	*	*	*	*	*	*	*	*	*	*	*	*	*	*	*	*	*	*	*	*	*	*	*	*	*	*	*	*	*
*	*	*	*	*	*v	*v	*	*	*	*	*	*	*	*	*	*	*	*	*	*	*	*	*	*	*	*	*	*	*	*	*	*	*	*
!	!	!	!	!	!	!	!	!	!LO:LB:g=original	!	!	!	!	!	!	!	!	!	!	!	!	!	!	!	!	!	!	!	!	!	!	!	!
=41	=41	=41	=41	=41	=41	=41	=41	=41	=41	=41	=41	=41	=41	=41	=41	=41	=41	=41	=41	=41	=41	=41	=41	=41	=41	=41	=41	=41	=41	=41	=41	=41	=41
*tremolo	*	*	*tremolo	*	*tremolo	*	*	*	*	*	*	*	*	*	*	*	*	*	*	*	*	*	*	*	*	*	*	*	*	*	*	*	*
8B\L	8 6	.	8g\L	.	8b\L	.	8gg\	.	4B\	fa-	.	4d\	fa-	.	4g\	fa-	.	4dd\	fa-	.	2GG/	.	2.ryy	2dd\	.	2g/	.	2g/	.	2.b/	.	2.dd\	.
8B\	.	.	8g\	.	8b\	.	4dd\	.	.	.	.	.	.	.	.	.	.	.	.	.	.	.	.	.	.	.	.	.	.	.	.	.	.
8B\	.	.	8g\	.	8b\	.	.	.	4B\	-ctum	.	4d\	-ctum	.	4g\	-ctum	.	4dd\	-ctum	.	.	.	.	.	.	.	.	.	.	.	.	.	.
8B\	.	.	8g\	.	8b\	.	4b\	.	.	.	.	.	.	.	.	.	.	.	.	.	.	.	.	.	.	.	.	.	.	.	.	.	.
8B\	.	.	8g\	.	8b\	.	.	.	4r	.	.	4r	.	.	4r	.	.	4r	.	.	4r	.	.	4r	.	4r	.	4r	.	.	.	.	.
8B\J	.	.	8g\J	.	8b\J	.	8g/	.	.	.	.	.	.	.	.	.	.	.	.	.	.	.	.	.	.	.	.	.	.	.	.	.	.
!	!	!	!	!	!LO:LB:g=original	!	!	!	!	!	!	!	!	!	!	!	!	!	!	!	!	!	!	!	!	!	!	!	!	!	!	!	!
=42	=42	=42	=42	=42	=42	=42	=42	=42	=42	=42	=42	=42	=42	=42	=42	=42	=42	=42	=42	=42	=42	=42	=42	=42	=42	=42	=42	=42	=42	=42	=42	=42	=42
!LO:LB:g=original	!	!	!	!	!	!	!	!	!	!	!	!	!	!	!	!	!	!	!	!	!LO:TX:a:t=4	!	!	!	!	!	!	!	!	!	!	!	!
8A\L	3	.	8e\L	.	8a/L	.	4cc\	.	4.A\	/ge-	.	4.c\	/ge-	.	4.e\	Con-	.	4.cc\	/Ge-	.	2.r	.	2.ryy	8cc\L	.	8e/L	.	8e/L	.	2.a/	.	2.cc\	.
8A\	.	.	8e\	.	8a/	.	.	.	.	.	.	.	.	.	.	.	.	.	.	.	.	.	.	16cc\L	.	16e/L	.	16e/L	.	.	.	.	.
.	.	.	.	.	.	.	.	.	.	.	.	.	.	.	.	.	.	.	.	.	.	.	.	16cc\JJ	.	16e/JJ	.	16e/JJ	.	.	.	.	.
*	*	*	*	*	*	*	*	*	*	*	*	*	*	*	*	*	*	*	*	*	*	*	*	*	*	*tremolo	*	*	*	*	*	*	*
*	*	*	*	*	*	*	*	*	*	*	*	*	*	*	*	*	*	*	*	*	*	*	*	*tremolo	*	*	*	*tremolo	*	*	*	*	*
8A\	.	.	8e\	.	8a/	.	16cc\LL	.	.	.	.	.	.	.	.	.	.	.	.	.	.	.	.	8cc\L	.	8e/L	.	8e/L	.	.	.	.	.
.	.	.	.	.	.	.	(16dd\	.	.	.	.	.	.	.	.	.	.	.	.	.	.	.	.	.	.	.	.	.	.	.	.	.	.
8A\	.	.	8e\	.	8a/	.	16cc\	.	8A\	-ni-	.	8c\	-ni-	.	8e\	-ſub-	.	8cc\	-ni-	.	.	.	.	8cc\	.	8e/	.	8e/	.	.	.	.	.
.	.	.	.	.	.	.	16b\JJ)	.	.	.	.	.	.	.	.	.	.	.	.	.	.	.	.	.	.	.	.	.	.	.	.	.	.
8A\	.	.	8e\	.	8a/	.	(16a\LL	.	8A\	-tum	.	8c\	-tum	.	8e\	-ſtan-	.	8cc\	-tum	.	.	.	.	8cc\	.	8e/	.	8e/	.	.	.	.	.
.	.	.	.	.	.	.	16b\	.	.	.	.	.	.	.	.	.	.	.	.	.	.	.	.	.	.	.	.	.	.	.	.	.	.
8A\J	.	.	8e\J	.	8a/J	.	16cc\	.	8A\	non	.	8c\	non	.	8e\	-ti-	.	8cc\	non	.	.	.	.	8cc\J	.	8e/J	.	8e/J	.	.	.	.	.
.	.	.	.	.	.	.	16dd\JJ)	.	.	.	.	.	.	.	.	.	.	.	.	.	.	.	.	.	.	.	.	.	.	.	.	.	.
=43	=43	=43	=43	=43	=43	=43	=43	=43	=43	=43	=43	=43	=43	=43	=43	=43	=43	=43	=43	=43	=43	=43	=43	=43	=43	=43	=43	=43	=43	=43	=43	=43	=43
*tremolo	*	*	*	*	*	*	*	*	*	*	*	*	*	*	*	*	*	*	*	*	*	*	*	*	*	*	*	*	*	*	*	*	*
8G\L	6 3	.	8e\L	.	8g/L	.	8ee\	.	4G\	fa-	.	4B\	fa-	.	4e\	-a-	.	4b\	fa-	.	2.r	.	2.ryy	2ee\	.	2e/	.	2e/	.	2.g/	.	2.b\	.
8G\	.	.	8e\	.	8g/	.	4b\	.	.	.	.	.	.	.	.	.	.	.	.	.	.	.	.	.	.	.	.	.	.	.	.	.	.
8G\	.	.	8e\	.	8g/	.	.	.	4G\	-ctum/	.	4B\	-ctum/	.	4e\	-lem	.	4b\	-ctum/	.	.	.	.	.	.	.	.	.	.	.	.	.	.
8G\	.	.	8e\	.	8g/	.	4g/	.	.	.	.	.	.	.	.	.	.	.	.	.	.	.	.	.	.	.	.	.	.	.	.	.	.
8G\	.	.	8e\	.	8g/	.	.	.	4r	.	.	4r	.	.	4r	.	.	4r	.	.	.	.	.	4r	.	4r	.	4r	.	.	.	.	.
8G\J	.	.	8e\J	.	8g/J	.	8e/	.	.	.	.	.	.	.	.	.	.	.	.	.	.	.	.	.	.	.	.	.	.	.	.	.	.
*tremolo	*	*	*	*	*	*	*	*	*	*	*	*	*	*	*	*	*	*	*	*	*	*	*	*	*	*	*	*	*	*	*	*	*
!	!	!	!LO:LB:g=original	!	!	!	!	!	!	!	!	!	!	!LO:LB:g=original	!	!	!	!	!	!	!	!LO:LB:g=original	!	!	!	!	!	!	!	!	!	!	!
=44	=44	=44	=44	=44	=44	=44	=44	=44	=44	=44	=44	=44	=44	=44	=44	=44	=44	=44	=44	=44	=44	=44	=44	=44	=44	=44	=44	=44	=44	=44	=44	=44	=44
*	*	*	*	*	*tremolo	*	*	*	*	*	*	*	*	*	*	*	*	*	*	*	*	*	*	*	*	*	*	*	*	*	*	*	*
8F\L	3 5	.	8c\L	.	8f/L	.	4a/	.	4.F\	Con-	.	4.A\	Con-	.	8c\	Con-	.	4.a\	Con-	.	2.r	.	2.ryy	8cc\L	.	8c/L	.	8c/L	.	2.f/	.	2.a/	.
8F\	.	.	8c\	.	8f/	.	.	.	.	.	.	.	.	.	8c\	-sub-	.	.	.	.	.	.	.	16cc\L	.	16c/L	.	16c/L	.	.	.	.	.
.	.	.	.	.	.	.	.	.	.	.	.	.	.	.	.	.	.	.	.	.	.	.	.	16cc\JJ	.	16c/JJ	.	16c/JJ	.	.	.	.	.
8F\	.	.	8c\	.	8f/	.	16a/LL	.	.	.	.	.	.	.	8c\	-ſtan-	.	.	.	.	.	.	.	8cc\L	.	8c/L	.	8c/L	.	.	.	.	.
.	.	.	.	.	.	.	(16b-X/	.	.	.	.	.	.	.	.	.	.	.	.	.	.	.	.	.	.	.	.	.	.	.	.	.	.
!	!	!	!	!	!	!	!	!	!LO:LB:g=original	!	!	!	!	!	!	!	!	!	!	!	!	!	!	!	!	!	!	!	!	!	!	!	!
8F\	.	.	8c\	.	8f/	.	16a/)	.	8F\	-ſub-	.	8A\	-sub-	.	8c\	-ti-	.	8a\	-ſub-	.	.	.	.	8cc\	.	8c/	.	8c/	.	.	.	.	.
.	.	.	.	.	.	.	16g/JJ	.	.	.	.	.	.	.	.	.	.	.	.	.	.	.	.	.	.	.	.	.	.	.	.	.	.
8F\	.	.	8c\	.	8f/	.	16f/LL	.	8F\	-ſtan-	.	8A\	-ſtan-	.	8c\	-a-	.	8a\	-ſtan-	.	.	.	.	8cc\	.	8c/	.	8c/	.	.	.	.	.
.	.	.	.	.	.	.	(16g/	.	.	.	.	.	.	.	.	.	.	.	.	.	.	.	.	.	.	.	.	.	.	.	.	.	.
8F\J	.	.	8c\J	.	8f/J	.	16a/)	.	8F\	-ti-	.	8A\	-ti-	.	8c\	-lem	.	8a\	-ti-	.	.	.	.	8cc\J	.	8c/J	.	8c/J	.	.	.	.	.
.	.	.	.	.	.	.	16bn/JJ	.	.	.	.	.	.	.	.	.	.	.	.	.	.	.	.	.	.	.	.	.	.	.	.	.	.
*	*	*	*	*	*	*	*	*	*	*	*	*	*	*	*	*	*	*	*	*	*	*	*	*	*	*	*	*Xtremolo	*	*	*	*	*
*	*	*	*	*	*tremolo	*	*	*	*	*	*	*	*	*	*	*	*	*	*	*	*	*	*	*	*	*Xtremolo	*	*	*	*	*	*	*
=45	=45	=45	=45	=45	=45	=45	=45	=45	=45	=45	=45	=45	=45	=45	=45	=45	=45	=45	=45	=45	=45	=45	=45	=45	=45	=45	=45	=45	=45	=45	=45	=45	=45
*	*	*	*	*	*tremolo	*	*	*	*	*	*	*	*	*	*	*	*	*	*	*	*	*	*	*	*	*	*	*	*	*	*	*	*
8E\L	3 6	.	8c\L	.	8e/L	.	8cc\	.	4E\	-a-	.	4G/	-a-	.	4c\	Pa-	.	4g\	-a-	.	2.r	.	2.ryy	2cc\	.	2c/	.	2c/	.	2e/	.	2g/	.
8E\	.	.	8c\	.	8e/	.	4g/	.	.	.	.	.	.	.	.	.	.	.	.	.	.	.	.	.	.	.	.	.	.	.	.	.	.
8E\	.	.	8c\	.	8e/	.	.	.	4E\	-lem	.	4G/	-lem	.	4c\	-tri	.	4g\	-lem	.	.	.	.	.	.	.	.	.	.	.	.	.	.
8E\	.	.	8c\	.	8e/	.	4e/	.	.	.	.	.	.	.	.	.	.	.	.	.	.	.	.	.	.	.	.	.	.	.	.	.	.
8E\	.	.	8c\	.	8e/	.	.	.	4r	.	.	4r	.	.	4r	.	.	4r	.	.	.	.	.	4r	.	4r	.	4r	.	4r	.	4r	.
8E\J	.	.	8c\J	.	8e/J	.	8c/	.	.	.	.	.	.	.	.	.	.	.	.	.	.	.	.	.	.	.	.	.	.	.	.	.	.
*	*	*	*	*	*Xtremolo	*	*	*	*	*	*	*	*	*	*	*	*	*	*	*	*	*	*	*	*	*	*	*	*	*	*	*	*
*	*	*	*Xtremolo	*	*	*	*	*	*	*	*	*	*	*	*	*	*	*	*	*	*	*	*	*	*	*	*	*	*	*	*	*	*
=46	=46	=46	=46	=46	=46	=46	=46	=46	=46	=46	=46	=46	=46	=46	=46	=46	=46	=46	=46	=46	=46	=46	=46	=46	=46	=46	=46	=46	=46	=46	=46	=46	=46
8r	.	.	(8d\L	.	(8B/L	.	4dd\	.	8r	.	.	4B\	Pa-	.	2g\	Per	.	4dd\	Pa-	.	8GG/L	.	2.ryy	8dd\L	.	4.g/	.	4.dd\	.	2b\	.	2dd\	.
8GG/L	5 3	.	8f\)	.	8G/)	.	.	.	8G\L	per	.	.	.	.	.	.	.	.	.	.	16GG/L	.	.	16dd\L	.	.	.	.	.	.	.	.	.
.	.	.	.	.	.	.	.	.	.	.	.	.	.	.	.	.	.	.	.	.	16GG/JJ	.	.	16dd\JJ	.	.	.	.	.	.	.	.	.
*	*	*	*	*	*	*	*	*	*	*	*	*	*	*	*	*	*	*	*	*	*	*	*	*tremolo	*	*	*	*	*	*	*	*	*
8BB/	.	.	(8d\	.	(8B/	.	16g\LL	.	8B\	.	.	4B\	-tri	.	.	.	.	4dd\	-tri	.	8GG/L	.	.	8dd\L	.	.	.	.	.	.	.	.	.
.	.	.	.	.	.	.	16a\	.	.	.	.	.	.	.	.	.	.	.	.	.	.	.	.	.	.	.	.	.	.	.	.	.	.
!	!	!	!	!	!	!	!	!	!	!	!	!	!	!	!	!	!	!	!	!	!	!	!	!	!	!	!	!LO:LB:g=original	!	!	!	!	!
8D/	.	.	8f\)	.	8G/)	.	(16b\	.	8d\J	.	.	.	.	.	.	.	.	.	.	.	8GG/	.	.	8dd\	.	8g/	.	8dd\	.	.	.	.	.
.	.	.	.	.	.	.	16cc\JJ	.	.	.	.	.	.	.	.	.	.	.	.	.	.	.	.	.	.	.	.	.	.	.	.	.	.
!	!	!	!	!	!	!	!	!	!	!	!	!	!	!	!	!	!	!LO:LB:g=original	!	!	!	!	!	!	!	!	!	!	!	!	!	!	!
8BB/	.	.	(8d\	.	(8B/	.	16dd\LL	.	8B\L	quem	.	8B\	Per	.	4g\	quem	.	8dd\	Per	.	8GG/	.	.	8dd\	.	4g/	.	4dd\	.	4dd\	.	4ff\	.
.	.	.	.	.	.	.	16ee\	.	.	.	.	.	.	.	.	.	.	.	.	.	.	.	.	.	.	.	.	.	.	.	.	.	.
8GG/J	.	.	8f\J)	.	8G/J)	.	16ff\)	.	8G\J	.	.	8B\	quem	.	.	.	.	8dd\	quem	.	8GG/J	.	.	8dd\J	.	.	.	.	.	.	.	.	.
.	.	.	.	.	.	.	16dd\JJ	.	.	.	.	.	.	.	.	.	.	.	.	.	.	.	.	.	.	.	.	.	.	.	.	.	.
=47	=47	=47	=47	=47	=47	=47	=47	=47	=47	=47	=47	=47	=47	=47	=47	=47	=47	=47	=47	=47	=47	=47	=47	=47	=47	=47	=47	=47	=47	=47	=47	=47	=47
8r	.	.	(8e\L	.	(8c/L	.	8ee\	.	8r	.	.	4.c\	o-	.	4.g\	o-	.	4.ee\	o-	.	4.C/	.	2.ryy	4ee\	.	4cc\	.	4ee\	.	2cc\	.	8ee\	.
8C\L	.	.	8g\)	.	8G/)	.	4gg\	.	8C/	o-	.	.	.	.	.	.	.	.	.	.	.	.	.	.	.	.	.	.	.	.	.	4gg\	.
*	*	*	*	*	*	*	*	*	*	*	*	*	*	*	*	*	*	*	*	*	*	*	*	*Xtremolo	*	*	*	*	*	*	*	*	*
8E\	.	.	(8e\	.	(8c/	.	.	.	8E\L	-mni-	.	.	.	.	.	.	.	.	.	.	.	.	.	8ee\L	.	4cc\	.	4ee\	.	.	.	.	.
!	!	!	!	!	!	!	!	!	!	!	!	!LO:LB:g=original	!	!	!	!	!	!	!	!	!	!	!	!	!	!	!	!	!	!	!	!	!
8G\	.	.	8g\)	.	8G/)	.	4ee\	.	8G\J	.	.	8c\	-mni-	.	8g\	-mni-	.	8ee\	-mni-	.	8C/	.	.	8ee\J	.	.	.	.	.	.	.	4ee\	.
8E\	.	.	(8e\	.	(8c/	.	.	.	8E\L	-a	.	4c\	-a	.	4g\	-a	.	4ee\	-a	.	4C/	.	.	4ee\	.	4cc\	.	4ee\	.	4ee\	.	.	.
8C\J	.	.	8g\J)	.	8G/J)	.	8cc\	.	8C\J	.	.	.	.	.	.	.	.	.	.	.	.	.	.	.	.	.	.	.	.	.	.	8cc\	.
!	!	!	!	!	!	!	!LO:LB:g=original	!	!	!	!	!	!	!	!	!	!	!	!	!	!	!	!	!	!	!	!	!	!	!	!	!	!
=48	=48	=48	=48	=48	=48	=48	=48	=48	=48	=48	=48	=48	=48	=48	=48	=48	=48	=48	=48	=48	=48	=48	=48	=48	=48	=48	=48	=48	=48	=48	=48	=48	=48
8r	.	.	(8f\L	.	(8d/L	.	8dd\	.	8r	.	.	(4d\	fa-	.	2g\	fa-	.	2ff\	fa-	.	8GG/L	.	2.ryy	8dd\L	.	4.g/	.	4.dd\	.	2ff\	.	2dd\	.
8D/L	6 3	.	8g\)	.	8G/)	.	4b\	.	8d\L	fa-	.	.	.	.	.	.	.	.	.	.	16GG/L	.	.	16dd\L	.	.	.	.	.	.	.	.	.
.	.	.	.	.	.	.	.	.	.	.	.	.	.	.	.	.	.	.	.	.	16GG/JJ	.	.	16dd\JJ	.	.	.	.	.	.	.	.	.
*	*	*	*	*	*	*	*	*	*	*	*	*	*	*	*	*	*	*	*	*	*	*	*	*tremolo	*	*	*	*	*	*	*	*	*
8BB/	.	.	(8f\	.	(8d/	.	.	.	8B\	.	.	4B\)	.	.	.	.	.	.	.	.	8GG/L	.	.	8dd\L	.	.	.	.	.	.	.	.	.
8D/	.	.	8g\)	.	8G/)	.	4g\	.	8d\J	.	.	.	.	.	.	.	.	.	.	.	8GG/	.	.	8dd\	.	8g/	.	8dd\	.	.	.	.	.
8GG/	.	.	(8f\	.	(8d/	.	.	.	8G\L	-cta	.	4d\	-cta	.	4g\	-cta	.	4ff\	-cta	.	8GG/	.	.	8dd\	.	4g/	.	4dd\	.	4dd\	.	4b\	.
8BB/J	.	.	8g\J)	.	8G/J)	.	8b\	.	8B\J	.	.	.	.	.	.	.	.	.	.	.	8GG/J	.	.	8dd\J	.	.	.	.	.	.	.	.	.
*	*	*	*	*	*	*	*	*	*	*	*	*	*	*	*	*	*	*	*	*	*	*	*	*Xtremolo	*	*	*	*	*	*	*	*	*
*	*	*	*	*	*	*	*	*	*	*	*	*	*	*	*	*	*	*	*	*	*Xtremolo	*	*	*	*	*	*	*	*	*	*	*	*
=49	=49	=49	=49	=49	=49	=49	=49	=49	=49	=49	=49	=49	=49	=49	=49	=49	=49	=49	=49	=49	=49	=49	=49	=49	=49	=49	=49	=49	=49	=49	=49	=49	=49
4C/	.	.	(8e\L	.	(8e/L	.	8cc|\L	.	2c\	Sunt	.	2c\	Sunt	.	2g\	Sunt	.	2ee\	Sunt	.	2C/	.	2.ryy	2cc\	.	4e/	.	4cc\	.	2ee\	.	8cc|\L	.
.	.	.	8g\)	.	8G/)	.	8b|\	.	.	.	.	.	.	.	.	.	.	.	.	.	.	.	.	.	.	.	.	.	.	.	.	8b|\	.
4CC/	.	.	8c\	.	(8e/	.	8cc|\	.	.	.	.	.	.	.	.	.	.	.	.	.	.	.	.	.	.	4r	.	4r	.	.	.	8cc|\	.
.	.	.	8g\	.	8G/)	.	8dd|\	.	.	.	.	.	.	.	.	.	.	.	.	.	.	.	.	.	.	.	.	.	.	.	.	8dd|\	.
4r	.	.	8e\	.	(8c/	.	8ee|\	.	4r	.	.	4r	.	.	4r	.	.	4r	.	.	4r	.	.	4r	.	4e/	.	4cc\	.	4cc\	.	8ee|\	.
.	.	.	8g\J	.	8G/J)	.	8cc|\J	.	.	.	.	.	.	.	.	.	.	.	.	.	.	.	.	.	.	.	.	.	.	.	.	8cc|\J	.
!	!	!	!	!	!	!	!	!	!	!	!	!	!	!	!	!	!	!	!	!	!	!	!	!	!	!	!	!	!	!	!	!LO:LB:g=original	!
=50	=50	=50	=50	=50	=50	=50	=50	=50	=50	=50	=50	=50	=50	=50	=50	=50	=50	=50	=50	=50	=50	=50	=50	=50	=50	=50	=50	=50	=50	=50	=50	=50	=50
!	!	!	!	!	!	!LO:DY:a	!	!	!	!	!	!	!	!LO:DY:a	!	!	!LO:DY:a	!	!	!LO:DY:a	!	!	!	!	!	!	!	!	!	!	!	!	!
8r	.	p	(8d\L	p	(8B/L	p	4dd\	p	8r	.	.	4B\	Qui	p	4g\	Qui	p	4dd\	Qui	p	2.GG/	p	2.ryy	2.dd\	p	4.g/	p	4.dd\	p	2b\	p	2dd\	p
8GG/L	.	.	8f\)	.	8G/)	.	.	.	8G\	Qui	p	.	.	.	.	.	.	.	.	.	.	.	.	.	.	.	.	.	.	.	.	.	.
8BB/	.	.	(8d\	.	(8B/	.	16g/LL	.	8B\	pro-	.	4B\	p(ro)-	.	4g\	Pro-	.	4dd\	pro-	.	.	.	.	.	.	.	.	.	.	.	.	.	.
.	.	.	.	.	.	.	(16a/	.	.	.	.	.	.	.	.	.	.	.	.	.	.	.	.	.	.	.	.	.	.	.	.	.	.
8D/	.	.	8f\)	.	8G/)	.	16b/	.	8d\	-pter	.	.	.	.	.	.	.	.	.	.	.	.	.	.	.	8g/	.	8dd\	.	.	.	.	.
.	.	.	.	.	.	.	16cc/JJ)	.	.	.	.	.	.	.	.	.	.	.	.	.	.	.	.	.	.	.	.	.	.	.	.	.	.
!	!	!	!	!	!	!	!	!	!	!	!	!	!	!	!	!	!	!	!	!	!	!	!	!	!	!LO:LB:g=original	!	!	!	!	!	!	!
8BB/	.	.	(8d\	.	(8B/	.	16dd\LL	.	8B\L	nos	.	8B\	-pter	.	8g\	-pter	.	8dd\	-pter	.	.	.	.	.	.	4g/	.	4dd\	.	4dd\	.	4ff\	.
.	.	.	.	.	.	.	(16ee\	.	.	.	.	.	.	.	.	.	.	.	.	.	.	.	.	.	.	.	.	.	.	.	.	.	.
8GG/J	.	.	8f\J)	.	8G/J)	.	16ff\	.	8G\J	.	.	8B\	nos	.	8g\	nos	.	8dd\	nos	.	.	.	.	.	.	.	.	.	.	.	.	.	.
.	.	.	.	.	.	.	16dd\JJ)	.	.	.	.	.	.	.	.	.	.	.	.	.	.	.	.	.	.	.	.	.	.	.	.	.	.
!	!	!	!	!	!	!	!	!	!LO:LB:g=original	!	!	!	!	!LO:LB:g=original	!	!	!	!	!	!	!	!	!	!	!	!	!	!	!	!	!	!	!
=51	=51	=51	=51	=51	=51	=51	=51	=51	=51	=51	=51	=51	=51	=51	=51	=51	=51	=51	=51	=51	=51	=51	=51	=51	=51	=51	=51	=51	=51	=51	=51	=51	=51
!LO:TX:t=P:problem:2 nadmiarowe takty w cor 2	!	!	!LO:TX:t=P:problem:2 nadmiarowe takty w cor 2	!	!LO:TX:t=P:problem:2 nadmiarowe takty w cor 2	!	!LO:TX:t=P:problem:2 nadmiarowe takty w cor 2	!	!LO:TX:t=P:problem:2 nadmiarowe takty w cor 2	!	!	!LO:TX:t=P:problem:2 nadmiarowe takty w cor 2	!	!	!LO:TX:t=P:problem:2 nadmiarowe takty w cor 2	!	!	!LO:TX:t=P:problem:2 nadmiarowe takty w cor 2	!	!	!LO:TX:t=P:problem:2 nadmiarowe takty w cor 2	!	!	!LO:TX:t=P:problem:2 nadmiarowe takty w cor 2	!	!	!	!LO:TX:t=P:problem:2 nadmiarowe takty w cor 2	!	!LO:TX:t=P:problem:2 nadmiarowe takty w cor 2	!	!LO:TX:t=P:problem:2 nadmiarowe takty w cor 2	!
2.ryy	.	.	2.ryy	.	2.ryy	.	2.ryy	.	2.ryy	.	.	2.ryy	.	.	2.ryy	.	.	2.ryy	.	.	2.ryy	.	2.ryy	2.ryy	.	4e/	.	2.ryy	.	2.ryy	.	2.ryy	.
.	.	.	.	.	.	.	.	.	.	.	.	.	.	.	.	.	.	.	.	.	.	.	.	.	.	4r	.	.	.	.	.	.	.
.	.	.	.	.	.	.	.	.	.	.	.	.	.	.	.	.	.	.	.	.	.	.	.	.	.	4e/	.	.	.	.	.	.	.
=52	=52	=52	=52	=52	=52	=52	=52	=52	=52	=52	=52	=52	=52	=52	=52	=52	=52	=52	=52	=52	=52	=52	=52	=52	=52	=52	=52	=52	=52	=52	=52	=52	=52
2.ryy	.	.	2.ryy	.	2.ryy	.	2.ryy	.	2.ryy	.	.	2.ryy	.	.	2.ryy	.	.	2.ryy	.	.	2.ryy	.	2.ryy	2.ryy	.	4.g/	.	2.ryy	.	2.ryy	.	2.ryy	.
.	.	.	.	.	.	.	.	.	.	.	.	.	.	.	.	.	.	.	.	.	.	.	.	.	.	8g/	.	.	.	.	.	.	.
.	.	.	.	.	.	.	.	.	.	.	.	.	.	.	.	.	.	.	.	.	.	.	.	.	.	4g/	.	.	.	.	.	.	.
=53	=53	=53	=53	=53	=53	=53	=53	=53	=53	=53	=53	=53	=53	=53	=53	=53	=53	=53	=53	=53	=53	=53	=53	=53	=53	=53	=53	=53	=53	=53	=53	=53	=53
8r	.	.	(8e\L	.	(8c/L	.	8ee\	.	8r	.	.	4.c\	ho-	.	4.g\	ho-	.	4.ee\	ho-	.	2C/	.	2.ryy	2ee\	.	4cc\	.	4ee\	.	2cc\	.	8ee\	.
8C\L	.	.	8g\)	.	8G/)	.	4gg\	.	8C/	ho-	.	.	.	.	.	.	.	.	.	.	.	.	.	.	.	.	.	.	.	.	.	4gg\	.
8E\	.	.	(8e\	.	(8c/	.	.	.	8E\L	-mi-	.	.	.	.	.	.	.	.	.	.	.	.	.	.	.	4cc\	.	4ee\	.	.	.	.	.
8G\	.	.	8g\)	.	8G/)	.	4ee\	.	8G\J	.	.	8c\	-mi-	.	8g\	-mi-	.	8ee\	-mi-	.	.	.	.	.	.	.	.	.	.	.	.	4ee\	.
8E\	.	.	(8e\	.	(8c/	.	.	.	8E\L	-nes	.	4c\	-nes	.	4g\	-nes	.	4ee\	-nes	.	4r	.	.	4r	.	4r	.	4r	.	4ee\	.	.	.
!	!	!	!	!	!LO:TX:t=P:problem:custos d	!	!	!	!	!	!	!	!	!	!	!	!	!	!	!	!	!	!	!	!	!	!	!	!	!	!	!	!
!	!	!	!	!	!LO:TX:b:t=V.S.	!	!	!	!	!	!	!	!	!	!	!	!	!	!	!	!	!	!	!	!	!	!	!	!	!	!	!	!
8C\J	.	.	8g\J)	.	8G/J)	.	8cc\	.	8C\J	.	.	.	.	.	.	.	.	.	.	.	.	.	.	.	.	.	.	.	.	.	.	8cc\	.
!	!	!	!	!	!LO:PB:g=original	!	!	!	!	!	!	!	!	!	!	!	!	!	!	!	!	!	!	!	!	!	!	!	!	!	!	!	!
=54	=54	=54	=54	=54	=54	=54	=54	=54	=54	=54	=54	=54	=54	=54	=54	=54	=54	=54	=54	=54	=54	=54	=54	=54	=54	=54	=54	=54	=54	=54	=54	=54	=54
!	!	!	!	!	!	!	!	!	!	!	!	!	!	!LO:DY:a	!	!	!	!	!	!	!LO:TX:a:t=2	!	!	!LO:TX:a:t=2	!	!	!	!	!	!	!	!	!
8F\L	6 3	f	8a\	f	8d/	f	8aa\	f	8A\L	et	f	4F/	Et	f	4a\	Et	f	4dd\	Et	f	2.r	.	2.ryy	2.r	.	4r	f	4r	f	2.ff\	f	8aa\	f
8F\	.	.	4a\	.	4dd\	.	4ff\	.	8F\J	.	.	.	.	.	.	.	.	.	.	.	.	.	.	.	.	.	.	.	.	.	.	4ff\	.
8F\	.	.	.	.	.	.	.	.	8F\	pro-	.	8F/	Pro-	.	8a\	p(ro)-	.	8dd\	pro-	.	.	.	.	.	.	4dd\	.	4dd|\	.	.	.	.	.
8F\	.	.	4a\	.	8dd\	.	8cc#X\	.	8C#X\	-pter	.	8F/	-pter	.	8a\	-pter	.	8dd\	-pter	.	.	.	.	.	.	.	.	.	.	.	.	8cc#X\	.
8F\	.	.	.	.	(8ff\L	.	16dd\LL	.	8D\	no-	.	8F/	no-	.	8a\	no-	.	4dd\	no-	.	.	.	.	.	.	4dd\	.	4dd|\	.	.	.	8dd\L	.
.	.	.	.	.	.	.	(16ee\	.	.	.	.	.	.	.	.	.	.	.	.	.	.	.	.	.	.	.	.	.	.	.	.	.	.
8F\J	.	.	8a\	.	8dd\J)	.	16ff\	.	8F\	-stram	.	16F/	-stram	.	8a\	-stram	.	.	.	.	.	.	.	.	.	.	.	.	.	.	.	8ff\J	.
.	.	.	.	.	.	.	16dd\JJ)	.	.	.	.	16F/	Sa-	.	.	.	.	.	.	.	.	.	.	.	.	.	.	.	.	.	.	.	.
!!LO:LB:g=original	*	*	*	*	*	*	*	*	*	*	*	*	*	*	*	*	*	*	*	*	*	*	*	*	*	*	*	*	*	*	*	*	*
!	!	!	!	!	!	!	!	!	!	!	!	!	!	!	!	!	!	!LO:LB:g=original	!	!	!	!	!	!	!	!	!	!	!LO:LB:g=original	!	!	!	!
=55	=55	=55	=55	=55	=55	=55	=55	=55	=55	=55	=55	=55	=55	=55	=55	=55	=55	=55	=55	=55	=55	=55	=55	=55	=55	=55	=55	=55	=55	=55	=55	=55	=55
8E\L	6 3	.	8g\	.	8c/	.	8gg\	.	8G\L	Sa-	.	2E/	-lu-	.	4g\	Sa-	.	8cc\	-stram	.	2.r	.	2.ryy	2.r	.	4r	.	4r	.	2.ee\	.	8gg\	.
8E\	.	.	4g\	.	4cc\	.	4ee\	.	8E\J	.	.	.	.	.	.	.	.	8cc\	Sa-	.	.	.	.	.	.	.	.	.	.	.	.	4ee\	.
!	!	!	!	!	!	!	!	!	!LO:TX:t=P:problem:mixed beam	!	!	!	!	!	!	!	!	!	!	!	!	!	!	!	!	!	!	!	!	!	!	!	!
8E\	.	.	.	.	.	.	.	.	8E/L	-lu-	.	.	.	.	4g\	-lu-	.	4cc\	-lu-	.	.	.	.	.	.	4e/	.	4cc|\	.	.	.	.	.
8E\	.	.	4g\	.	8cc\	.	8b\	.	8BB/J	.	.	.	.	.	.	.	.	.	.	.	.	.	.	.	.	.	.	.	.	.	.	8b\	.
8E\	.	.	.	.	8ee\L	.	16ccn\LL	.	4C/	-tem	.	4E/	-tem	.	4g\	-tem	.	4cc\	-tem	.	.	.	.	.	.	4e/	.	4cc|\	.	.	.	8ccn\L	.
.	.	.	.	.	.	.	(16dd\	.	.	.	.	.	.	.	.	.	.	.	.	.	.	.	.	.	.	.	.	.	.	.	.	.	.
8E\J	.	.	8g\	.	8cc\J	.	16ee\	.	.	.	.	.	.	.	.	.	.	.	.	.	.	.	.	.	.	.	.	.	.	.	.	8ee\J	.
.	.	.	.	.	.	.	16cc\JJ)	.	.	.	.	.	.	.	.	.	.	.	.	.	.	.	.	.	.	.	.	.	.	.	.	.	.
*Xtremolo	*	*	*	*	*	*	*	*	*	*	*	*	*	*	*	*	*	*	*	*	*	*	*	*	*	*	*	*	*	*	*	*	*
=56	=56	=56	=56	=56	=56	=56	=56	=56	=56	=56	=56	=56	=56	=56	=56	=56	=56	=56	=56	=56	=56	=56	=56	=56	=56	=56	=56	=56	=56	=56	=56	=56	=56
!	!	!	!	!	!	!	!	!	!LO:TX:a:t=1	!	!	!LO:TX:a:t=1	!	!	!LO:TX:a:t=1	!	!	!LO:TX:a:t=1	!	!	!	!	!	!	!	!	!	!	!	!	!	!	!
4GG/ 4G	.	.	4b\	.	8dd|\L	.	8ff|\L	.	2.r	.	.	2.r	.	.	2.r	.	.	2.r	.	.	4GG/	f	2.ryy	4dd\	f	4g/	.	4dd\	.	8dd|\L	.	8ff|\L	.
.	.	.	.	.	8cc|\	.	8ee|\	.	.	.	.	.	.	.	.	.	.	.	.	.	.	.	.	.	.	.	.	.	.	8cc|\	.	8ee|\	.
4r	.	.	4r	.	8b|\	.	8dd|\	.	.	.	.	.	.	.	.	.	.	.	.	.	4r	.	.	4r	.	4r	.	4r	.	8b|\	.	8dd|\	.
.	.	.	.	.	8a|\	.	8cc|\	.	.	.	.	.	.	.	.	.	.	.	.	.	.	.	.	.	.	.	.	.	.	8a|\	.	8cc|\	.
4r	.	.	4r	.	8g|\	.	8b|\	.	.	.	.	.	.	.	.	.	.	.	.	.	4r	.	.	4r	.	4r	.	4r	.	8g|\	.	8b|\	.
.	.	.	.	.	8f#X\|J	.	8a|\J	.	.	.	.	.	.	.	.	.	.	.	.	.	.	.	.	.	.	.	.	.	.	8f#X|\J	.	8a|\J	.
!	!	!	!LO:LB:g=original	!	!	!LO:LB:g=original	!	!	!	!	!	!	!	!	!	!	!	!	!	!	!	!	!	!	!	!	!	!	!	!	!	!	!
=57	=57	=57	=57	=57	=57	=57	=57	=57	=57	=57	=57	=57	=57	=57	=57	=57	=57	=57	=57	=57	=57	=57	=57	=57	=57	=57	=57	=57	=57	=57	=57	=57	=57
!	!	!	!	!	!	!	!	!	!	!	!	!	!	!	!	!	!	!LO:TX:t=P:problem:mixed beam	!	!	!	!	!	!	!	!	!	!	!	!	!	!	!
8GG/L	7 5	.	8G\ 8d	.	8g/	.	8G/ 8g	.	4G\	Des-	.	8B\L	Deſ-	.	4g\	Deſ-	.	8g\L	Des-	.	2GG/	.	2.ryy	4dd\	.	2g/	.	2dd\	.	8g/	.	8g/	.
8GG/	.	.	4G\ 4d	.	4dd\	.	4ff\	.	.	.	.	8d\J	.	.	.	.	.	8ff\J	.	.	.	.	.	.	.	.	.	.	.	4dd\	.	4ff\	.
8BB/	.	.	.	.	.	.	.	.	4B\	-cen-	.	8d\L	-cen-	.	4g\	-cen-	.	8ff\L	-cen-	.	.	.	.	8dd\L	.	.	.	.	.	.	.	.	.
8BB/	.	.	8G\ 8d	.	8cc\	.	4ee\	.	.	.	.	8c\J	.	.	.	.	.	8ee\J	.	.	.	.	.	8dd\J	.	.	.	.	.	4cc\	.	4ee\	.
!	!	!	!	!	!	!	!	!	!	!	!	!LO:LB:g=original	!	!	!	!	!	!	!	!	!	!	!	!	!	!	!	!	!	!	!	!	!
8C/	3	.	8G\L 8e	.	4ee\	.	.	.	4c\	-dit	.	4c\	-dit	.	4g\	-dit	.	4ee\	-dit	.	4C/	.	.	4ee\	.	4cc\	.	4ee\	.	.	.	.	.
8C/J	.	.	8G\J 8e	.	.	.	8ccc\	.	.	.	.	.	.	.	.	.	.	.	.	.	.	.	.	.	.	.	.	.	.	8ee\	.	8ccc\	.
!	!	!	!	!	!	!	!	!	!	!	!	!	!	!	!	!	!	!	!	!	!LO:LB:g=original	!	!	!	!	!	!	!	!	!	!	!	!
=58	=58	=58	=58	=58	=58	=58	=58	=58	=58	=58	=58	=58	=58	=58	=58	=58	=58	=58	=58	=58	=58	=58	=58	=58	=58	=58	=58	=58	=58	=58	=58	=58	=58
!LO:TX:t=P:problem:mixed beam	!	!	!	!	!	!	!	!	!	!	!	!	!	!	!	!	!	!	!	!	!	!	!	!	!	!	!	!	!	!	!	!	!
8F\L	.	.	8f\LL	.	(8ff\L	.	8aa|\L	.	4F\	de	.	4A/	de	.	8f\L	de	.	8dd\L	De	.	4r	.	2.ryy	4r	.	4r	.	4r	.	4dd\	.	4ff\	.
8F\	.	.	8f\JJ	.	8dd\J)	.	8ff|\	.	.	.	.	.	.	.	8a\J	.	.	8ff\J	.	.	.	.	.	.	.	.	.	.	.	.	.	.	.
!	!	!	!	!	!	!	!	!	!	!	!	!	!	!	!	!	!	!	!	!	!	!	!	!	!	!LO:TX:b:i:t=Dolce	!	!	!	!	!	!	!
!	!	!	!	!	!	!	!	!	!	!	!	!	!	!	!	!	!	!	!	!	!	!	!	!	!	!LO:TX:t=P:problem:"Dolce" czerwonym atramentem	!	!	!	!	!	!	!
8G\	4	.	8g\L	.	(8g/L	.	(8ee\	.	4G\	Cae-	.	2G/	Cae-	.	8g\L	Cae-	.	8ee\L	Cae-	.	4C/	.	.	4ee\	.	4cc\	.	4ee\	.	4cc\	.	4ee\	.
8G\	.	.	8G\	.	8e/)	.	8cc\)	.	.	.	.	.	.	.	8e\	.	.	8cc\	.	.	.	.	.	.	.	.	.	.	.	.	.	.	.
!	!	!	!	!	!	!	!	!	!	!	!	!	!	!	!	!	!	!	!	!	!	!	!	!	!	!LO:TX:a:i:t=NB	!	!	!	!	!	!	!
8GG/	3	.	8g/	.	(8f/	.	(8dd\	.	4GG/	.	.	.	.	.	8f\	.	.	8dd\	.	.	4GG/	.	.	4dd\	.	4g/	.	4dd\	.	4b\	.	4dd\	.
8GG/J	.	.	8G/J	.	8d/J)	.	8b\J)	.	.	.	.	.	.	.	8d\J	.	.	8b\J	.	.	.	.	.	.	.	.	.	.	.	.	.	.	.
=59	=59	=59	=59	=59	=59	=59	=59	=59	=59	=59	=59	=59	=59	=59	=59	=59	=59	=59	=59	=59	=59	=59	=59	=59	=59	=59	=59	=59	=59	=59	=59	=59	=59
*	*	*	*	*	*^	*	*^	*	*	*	*	*	*	*	*	*	*	*	*	*	*	*	*	*	*	*	*	*	*	*	*	*	*
!	!	!	!	!	!	!	!	!	!	!	!	!	!	!	!	!	!	!	!	!	!	!	!	!	!	!	!	!	!	!	!	!LO:TX:t=P:problem:"Dolce" czerwonym atramentem	!	!	!
!	!	!	!	!	!	!	!	!	!	!	!	!	!	!	!	!	!	!	!	!	!	!	!	!	!	!	!	!	!	!	!	!LO:TX:b:i:t=Dolce	!	!LO:TX:t=P:problem:"Solo Dolce" czerwonym atramentem	!
!	!	!	!	!	!	!	!	!	!	!	!	!	!	!	!	!	!	!	!	!	!	!	!	!	!	!	!	!LO:TX:a:i:t=Solo	!	!	!	!LO:TX:a:i:t=Solo	!	!LO:TX:b:i:t=Solo Dolce	!
4C/	.	.	4G/ 4g	.	4e/	4ryy	.	4cc\	4ryy	.	4C/	-lis	.	4G/	-lis	.	4e\	-lis	.	4cc\	-lis	.	4C/	.	2.ryy	4cc\	.	4c/	.	4cc\	.	4cc\	.	4cc\	.
!	!	!	!LO:TX:t=P:problem:"Solo" czerwonym atramentem	!	!	!	!	!	!	!	!	!	!	!	!	!	!	!	!	!	!	!	!	!	!	!	!	!	!	!LO:TX:a:i:t=Solo	!	!	!	!	!
!	!	!	!LO:TX:b:i:t=Solo	!	!	!	!	!	!	!	!	!	!	!	!	!	!	!	!	!	!	!	!	!	!	!	!	!	!	!LO:TX:t=P:problem:"Dolce" i "Solo" czerwonym atramentem	!	!	!	!	!
!	!	!	!	!	!LO:TX:a:i:t=oboi	!	!	!LO:TX:a:i:t=oboi	!	!	!	!	!	!	!	!	!	!	!	!	!	!	!	!	!	!	!	!	!	!LO:TX:b:i:t=Dolce	!	!	!	!	!
4r	.	.	|4e\	.	(8ee/L	4r	.	(8gg/L	4r	.	4r	.	.	4r	.	.	4r	.	.	4r	.	.	4r	.	.	4r	.	4e/	.	(8gg\L	.	(8ee\L	.	(8gg\L	.
.	.	.	.	.	8cc/)	.	.	8ee/)	.	.	.	.	.	.	.	.	.	.	.	.	.	.	.	.	.	.	.	.	.	8ee\)	.	8cc\)	.	8ee\)	.
4r	.	.	|4g\	.	(8dd/	4r	.	(8ff/	4r	.	4r	.	.	4r	.	.	4r	.	.	4r	.	.	4r	.	.	4r	.	4g/	.	(8ff\	.	(8dd\	.	(8ff\	.
.	.	.	.	.	8b/J)	.	.	8dd/J)	.	.	.	.	.	.	.	.	.	.	.	.	.	.	.	.	.	.	.	.	.	8dd\J)	.	8b\J)	.	8dd\J)	.
!	!	!	!	!	!	!	!	!	!	!	!	!LO:LB:g=original	!	!	!	!	!	!	!	!	!	!	!	!	!	!	!	!	!	!	!	!	!	!	!
=60	=60	=60	=60	=60	=60	=60	=60	=60	=60	=60	=60	=60	=60	=60	=60	=60	=60	=60	=60	=60	=60	=60	=60	=60	=60	=60	=60	=60	=60	=60	=60	=60	=60	=60	=60
!LO:TX:a:t=2	!	!	!	!	!LO:TX:b:t=1	!	!	!LO:TX:b:t=1	!	!	!LO:TX:a:t=5	!	!	!LO:TX:a:t=5	!	!	!LO:TX:a:t=5	!	!	!LO:TX:a:t=5	!	!	!LO:TX:a:t=5	!	!	!LO:TX:a:t=5	!	!	!	!	!	!	!	!	!
2.r	.	.	|4c\	.	4cc/	2.r	.	4cc/	2.r	.	2.r	.	.	2.r	.	.	2.r	.	.	2.r	.	.	2.r	.	2.ryy	2.r	.	4c/	.	4cc\	.	4cc\	.	4ee\	.
.	.	.	|4e\	.	(8ee/L	.	.	(8gg/L	.	.	.	.	.	.	.	.	.	.	.	.	.	.	.	.	.	.	.	4e/	.	(8gg\L	.	(8ee\L	.	(8gg\L	.
.	.	.	.	.	8cc/)	.	.	8ee/)	.	.	.	.	.	.	.	.	.	.	.	.	.	.	.	.	.	.	.	.	.	8ee\)	.	8cc\)	.	8ee\)	.
.	.	.	|4g\	.	(8dd/	.	.	(8ff/	.	.	.	.	.	.	.	.	.	.	.	.	.	.	.	.	.	.	.	4g/	.	(8ff\	.	(8dd\	.	(8ff\	.
.	.	.	.	.	8b/J)	.	.	8dd/J)	.	.	.	.	.	.	.	.	.	.	.	.	.	.	.	.	.	.	.	.	.	8dd\J)	.	8b\J)	.	8dd\J)	.
!	!	!	!	!	!	!	!	!	!	!	!	!	!	!	!	!	!	!	!	!	!	!	!	!	!	!	!	!	!	!LO:LB:g=original	!	!	!	!	!
=61	=61	=61	=61	=61	=61	=61	=61	=61	=61	=61	=61	=61	=61	=61	=61	=61	=61	=61	=61	=61	=61	=61	=61	=61	=61	=61	=61	=61	=61	=61	=61	=61	=61	=61	=61
!	!	!	!LO:TX:t=P:problem:mixed beam	!	!LO:TX:b:t=2	!	!	!LO:TX:b:t=2	!	!	!	!	!	!	!	!	!	!	!	!	!	!	!	!	!	!	!	!	!	!	!	!	!	!	!
2.r	.	.	(8c\LL	.	8cc'/L	2.r	.	8ee/L	2.r	.	2.r	.	.	2.r	.	.	2.r	.	.	2.r	.	.	2.r	.	2.ryy	2.r	.	4c/	.	4cc\	.	(8cc\L	.	(8ee\L	.
.	.	.	8cc\)	.	(8aa/	.	.	8ccc/	.	.	.	.	.	.	.	.	.	.	.	.	.	.	.	.	.	.	.	.	.	.	.	8aa\)	.	8ccc\J)	.
.	.	.	(8b\	.	8gg/	.	.	8bb/	.	.	.	.	.	.	.	.	.	.	.	.	.	.	.	.	.	.	.	4r	.	4r	.	8gg|\	.	8bb|\L	.
.	.	.	8a\)	.	8ff/	.	.	8aa/	.	.	.	.	.	.	.	.	.	.	.	.	.	.	.	.	.	.	.	.	.	.	.	8ff|\	.	8aa|\	.
.	.	.	|8g\	.	8ee/)	.	.	8gg/	.	.	.	.	.	.	.	.	.	.	.	.	.	.	.	.	.	.	.	4r	.	4r	.	8ee|\	.	8gg|\	.
.	.	.	|8f\JJ	.	8dd/J	.	.	8ff/J	.	.	.	.	.	.	.	.	.	.	.	.	.	.	.	.	.	.	.	.	.	.	.	8dd\|J	.	8ff|\J	.
!	!	!	!	!	!	!	!	!	!	!	!	!	!	!	!	!	!	!	!	!	!	!	!	!	!	!	!	!	!	!	!	!	!	!LO:LB:g=original	!
=62	=62	=62	=62	=62	=62	=62	=62	=62	=62	=62	=62	=62	=62	=62	=62	=62	=62	=62	=62	=62	=62	=62	=62	=62	=62	=62	=62	=62	=62	=62	=62	=62	=62	=62	=62
!LO:TX:b:i:t=fagot Solo	!	!	!	!	!LO:TX:b:t=3	!	!	!LO:TX:b:t=3	!	!	!	!	!	!	!	!	!	!	!	!	!	!	!	!	!	!	!	!	!	!	!	!	!	!	!
8r	.	.	4G/ 4f	.	4dd/	2.r	.	4ff/	2.r	.	2.r	.	.	2.r	.	.	2.r	.	.	2.r	.	.	2.r	.	2.ryy	2.r	.	4g/	.	4dd\	.	4dd\	.	4ff\	.
!LO:TX:a:i:t=NB	!	!	!	!	!	!	!	!	!	!	!	!	!	!	!	!	!	!	!	!	!	!	!	!	!	!	!	!	!	!	!	!	!	!	!
8G\L	.	.	.	.	.	.	.	.	.	.	.	.	.	.	.	.	.	.	.	.	.	.	.	.	.	.	.	.	.	.	.	.	.	.	.
|8D\	.	.	4G/ 4f	.	4dd/	.	.	4ff/	.	.	.	.	.	.	.	.	.	.	.	.	.	.	.	.	.	.	.	4g/	.	4dd\	.	4dd\	.	4ff\	.
!LO:TX:a:i:t=Senza organo	!	!	!	!	!	!	!	!	!	!	!	!	!	!	!	!	!	!	!	!	!	!	!	!	!	!	!	!	!	!	!	!	!	!	!
|8G\	.	.	.	.	.	.	.	.	.	.	.	.	.	.	.	.	.	.	.	.	.	.	.	.	.	.	.	.	.	.	.	.	.	.	.
|8BB\	.	.	4G/ 4f	.	4dd/	.	.	4ff/	.	.	.	.	.	.	.	.	.	.	.	.	.	.	.	.	.	.	.	4g/	.	4dd\	.	4dd\	.	4ff\	.
|8D\J	.	.	.	.	.	.	.	.	.	.	.	.	.	.	.	.	.	.	.	.	.	.	.	.	.	.	.	.	.	.	.	.	.	.	.
=63	=63	=63	=63	=63	=63	=63	=63	=63	=63	=63	=63	=63	=63	=63	=63	=63	=63	=63	=63	=63	=63	=63	=63	=63	=63	=63	=63	=63	=63	=63	=63	=63	=63	=63	=63
!	!	!	!	!	!LO:TX:b:t=4	!	!	!LO:TX:b:t=4	!	!	!	!	!	!	!	!	!	!	!	!	!	!	!	!	!	!	!	!	!	!	!	!	!	!	!
|4GG/	.	.	2G/ 2f	.	4dd/	2.r	.	4ff/	2.r	.	2.r	.	.	2.r	.	.	2.r	.	.	2.r	.	.	2.r	.	2.ryy	2.r	.	2g/	.	2dd\	.	4dd\	.	(4ff\	.
|4BB/	.	.	.	.	8b/L	.	.	(8dd/L	.	.	.	.	.	.	.	.	.	.	.	.	.	.	.	.	.	.	.	.	.	.	.	8b\L	.	8dd\L	.
.	.	.	.	.	8dd/J	.	.	8ff/J)	.	.	.	.	.	.	.	.	.	.	.	.	.	.	.	.	.	.	.	.	.	.	.	8dd\J	.	8ff\J)	.
|4C/	.	.	4G/ 4e	.	4cc/	.	.	4ee/	.	.	.	.	.	.	.	.	.	.	.	.	.	.	.	.	.	.	.	4cc\	.	4ee\	.	4cc\	.	4ee\	.
!	!	!	!	!	!	!	!	!	!	!	!	!	!	!	!	!	!	!	!	!	!	!	!	!	!	!	!	!LO:LB:g=original	!	!	!	!	!	!	!
=64	=64	=64	=64	=64	=64	=64	=64	=64	=64	=64	=64	=64	=64	=64	=64	=64	=64	=64	=64	=64	=64	=64	=64	=64	=64	=64	=64	=64	=64	=64	=64	=64	=64	=64	=64
!	!	!	!	!	!	!LO:TX:a:t=5	!	!LO:TX:b:t=5	!	!	!	!	!	!	!	!	!	!	!	!	!	!	!	!	!	!	!	!	!	!	!	!	!	!	!
|4A\	.	.	4a\	.	2.r	4f\	.	4dd/	2.r	.	2.r	.	.	2.r	.	.	2.r	.	.	2.r	.	.	2.r	.	2.ryy	2.r	.	4r	.	4r	.	4f/	.	4dd\	.
|4G\	.	.	4g\	.	.	4e\	.	4cc/	.	.	.	.	.	.	.	.	.	.	.	.	.	.	.	.	.	.	.	4cc\	.	4ee\	.	4e/	.	4cc\	.
|4GG/	.	.	4G/	.	.	4d\	.	4b/	.	.	.	.	.	.	.	.	.	.	.	.	.	.	.	.	.	.	.	4g/	.	4dd\	.	4d/	.	4b\	.
=65	=65	=65	=65	=65	=65	=65	=65	=65	=65	=65	=65	=65	=65	=65	=65	=65	=65	=65	=65	=65	=65	=65	=65	=65	=65	=65	=65	=65	=65	=65	=65	=65	=65	=65	=65
|4C/	.	.	4c\	.	4r	4e\	.	4cc/	4r	.	4r	.	.	4r	.	.	4r	.	.	4r	.	.	4r	.	2.ryy	4r	.	4e/	.	4cc\	.	4e/	.	4cc\	.
!	!	!	!	!	!	!	!	!	!	!	!	!	!	!	!	!LO:DY:a	!	!	!	!	!	!	!	!	!	!	!	!	!LO:DY:a	!	!	!	!	!	!
4r	.	.	4r	.	4r	4ryy	.	4r	4r	.	4r	.	.	4r	.	.	4r	.	.	4r	.	.	4r	.	.	4r	f	4r	.	4r	.	4r	.	4r	.
!LO:TX:b:i:t=Org&colon; Tutti	!	!	!	!	!	!	!	!	!	!	!	!	!	!	!	!	!	!	!	!	!	!	!	!	!	!	!	!	!	!	!	!	!	!	!
4G\	5 3	f	4G/ 4g	f	4dd|\	4ryy	f	4bb\	4ryy	f	4G\	Cre-	.	4B\	Cre-	f	4g\	Cre-	.	4dd\	Cre-	.	4GG/	.	.	4dd\	.	4g/	f	4dd\	f	4b|\	f	4dd|\	f
*	*	*	*	*	*v	*v	*	*	*	*	*	*	*	*	*	*	*	*	*	*	*	*	*	*	*	*	*	*	*	*	*	*	*	*	*
*	*	*	*	*	*	*	*v	*v	*	*	*	*	*	*	*	*	*	*	*	*	*	*	*	*	*	*	*	*	*	*	*	*	*	*
=66	=66	=66	=66	=66	=66	=66	=66	=66	=66	=66	=66	=66	=66	=66	=66	=66	=66	=66	=66	=66	=66	=66	=66	=66	=66	=66	=66	=66	=66	=66	=66	=66	=66
4C/	5 3	.	4G/ 4g	.	4ee|\	.	4ccc\	.	4C/	-do	.	4c\	-do	.	4g\	-do	.	4ee\	-do	.	4C/	.	2.ryy	4ee\	.	4cc\	.	4ee\	.	4cc|\	.	4ee|\	.
4r	.	.	4r	.	4r	.	4r	.	4r	.	.	4r	.	.	4r	.	.	4r	.	.	4r	.	.	4r	.	4r	.	4r	.	4r	.	4r	.
4r	.	.	4r	.	4r	.	4r	.	4r	.	.	4r	.	.	4r	.	.	4r	.	.	4r	.	.	4r	.	4r	.	4r	.	4r	.	4r	.
==	==	==	==	==	==	==	==	==	==	==	==	==	==	==	==	==	==	==	==	==	==	==	==	==	==	==	==	==	==	==	==	==	==
*-	*-	*-	*-	*-	*-	*-	*-	*-	*-	*-	*-	*-	*-	*-	*-	*-	*-	*-	*-	*-	*-	*-	*-	*-	*-	*-	*-	*-	*-	*-	*-	*-	*-
!!!system-decoration: [(s1,s2)][(s3,s4,s5,s6)][(s7)][(s8,s9,s10,s11)][(s12,s13,s14)]s15
!!!RDF**kern: | = vertical stroke
!!!ENC: Andrzej Borzym
!!!END: 2020-10-30
!!!ENC: Urszula Świątek
!!!END: 2022-06-12
!!!RDF**kern: i = editorial accidental
